demo/Glossy-paper-months-later.ti3
CTI3   

DESCRIPTOR "Demo measurement"
ORIGINATOR "ArgyllCMS chartread"
CREATED "Demo"
DEVICE_CLASS "OUTPUT"
COLOR_REP "iRGB_XYZ"
TARGET_INSTRUMENT "X-Rite ColorMunki"
DEVCALSTD "XRGA"
SPECTRAL_BANDS "106"
SPECTRAL_START_NM "380.000000"
SPECTRAL_END_NM "730.000000"

NUMBER_OF_FIELDS 114
BEGIN_DATA_FORMAT
SAMPLE_ID SAMPLE_LOC RGB_R RGB_G RGB_B XYZ_X XYZ_Y XYZ_Z SPEC_380 SPEC_383 SPEC_387 SPEC_390 SPEC_393 SPEC_397 SPEC_400 SPEC_403 SPEC_407 SPEC_410 SPEC_413 SPEC_417 SPEC_420 SPEC_423 SPEC_427 SPEC_430 SPEC_433 SPEC_437 SPEC_440 SPEC_443 SPEC_447 SPEC_450 SPEC_453 SPEC_457 SPEC_460 SPEC_463 SPEC_467 SPEC_470 SPEC_473 SPEC_477 SPEC_480 SPEC_483 SPEC_487 SPEC_490 SPEC_493 SPEC_497 SPEC_500 SPEC_503 SPEC_507 SPEC_510 SPEC_513 SPEC_517 SPEC_520 SPEC_523 SPEC_527 SPEC_530 SPEC_533 SPEC_537 SPEC_540 SPEC_543 SPEC_547 SPEC_550 SPEC_553 SPEC_557 SPEC_560 SPEC_563 SPEC_567 SPEC_570 SPEC_573 SPEC_577 SPEC_580 SPEC_583 SPEC_587 SPEC_590 SPEC_593 SPEC_597 SPEC_600 SPEC_603 SPEC_607 SPEC_610 SPEC_613 SPEC_617 SPEC_620 SPEC_623 SPEC_627 SPEC_630 SPEC_633 SPEC_637 SPEC_640 SPEC_643 SPEC_647 SPEC_650 SPEC_653 SPEC_657 SPEC_660 SPEC_663 SPEC_667 SPEC_670 SPEC_673 SPEC_677 SPEC_680 SPEC_683 SPEC_687 SPEC_690 SPEC_693 SPEC_697 SPEC_700 SPEC_703 SPEC_707 SPEC_710 SPEC_713 SPEC_717 SPEC_720 SPEC_723 SPEC_727 SPEC_730 
END_DATA_FORMAT

NUMBER_OF_SETS 1168
BEGIN_DATA
1 "AI1" 0.00000 0.00000 0.00000 0.586913 0.534833 0.543525 0.973851 0.973851 0.973851 0.973851 0.973851 0.973851 0.973851 0.974594 0.975092 0.974882 0.973503 0.973393 0.977000 0.984087 0.966329 0.941057 0.908844 0.870376 0.849214 0.825632 0.805250 0.780930 0.751841 0.722011 0.702099 0.670682 0.634277 0.623041 0.584670 0.553791 0.536784 0.558189 0.536212 0.523327 0.526065 0.507340 0.487218 0.483868 0.491579 0.492422 0.486099 0.480043 0.474033 0.471301 0.467583 0.462280 0.454923 0.446536 0.435750 0.427597 0.425253 0.418726 0.412470 0.405537 0.396250 0.389789 0.382025 0.378675 0.376019 0.365490 0.360709 0.360986 0.362037 0.365730 0.375995 0.375735 0.365132 0.369942 0.371441 0.371991 0.376600 0.386675 0.394596 0.401571 0.402984 0.404621 0.408315 0.425956 0.441368 0.452727 0.475386 0.484691 0.511417 0.553390 0.597962 0.662667 0.755620 0.897690 1.093111 1.376939 1.804381 2.395020 3.196294 4.238570 5.664299 7.473967 9.639646 12.21316 15.19464 18.53029 22.19951 26.14356 30.25668 34.50107 38.76639 43.17395
2 "S2" 0.00000 12.54902 0.00000 0.829067 0.960090 0.845057 1.249533 1.249533 1.249533 1.249533 1.249533 1.249533 1.249533 1.250254 1.250654 1.250140 1.248118 1.247719 1.252077 1.266548 1.270048 1.254756 1.232451 1.197533 1.161760 1.131671 1.115975 1.101555 1.095561 1.067867 1.029090 1.013274 1.010543 0.981705 0.959851 0.974636 0.975395 0.945927 0.991376 1.057072 1.069364 1.083701 1.119435 1.170831 1.215097 1.262855 1.284020 1.296310 1.303260 1.287733 1.266328 1.239367 1.198329 1.157784 1.115873 1.069515 1.020401 0.961819 0.899806 0.845004 0.791580 0.738506 0.685948 0.644258 0.606247 0.572574 0.548560 0.526957 0.511496 0.498660 0.492514 0.490395 0.488282 0.488165 0.483195 0.486351 0.494700 0.504869 0.514329 0.528707 0.551090 0.564780 0.579095 0.598802 0.616526 0.632686 0.662642 0.703627 0.755867 0.811555 0.902504 1.031377 1.197548 1.411677 1.695652 2.096358 2.661461 3.396510 4.318182 5.475442 6.894644 8.575842 10.50707 12.67648 15.01919 17.51210 20.04480 22.70525 25.43669 27.99217 30.43586 33.06574
3 "U1" 0.00000 25.09804 0.00000 1.004942 1.337219 1.095836 1.501726 1.501726 1.501726 1.501726 1.501726 1.501726 1.501726 1.502452 1.502789 1.502024 1.499442 1.498806 1.503873 1.475338 1.468186 1.484458 1.463198 1.434677 1.407611 1.389795 1.378843 1.364711 1.356156 1.345882 1.335035 1.309262 1.282991 1.279174 1.300130 1.279192 1.261513 1.324980 1.396795 1.448396 1.541080 1.645552 1.758572 1.853886 1.948155 2.038679 2.114219 2.163586 2.182382 2.171005 2.124856 2.058401 1.981603 1.887277 1.777833 1.657932 1.537712 1.418065 1.295264 1.178784 1.070646 0.972797 0.886854 0.810274 0.744599 0.690171 0.645908 0.617653 0.593262 0.572727 0.569354 0.572053 0.564757 0.558727 0.555305 0.562479 0.576323 0.586887 0.595599 0.611767 0.632732 0.650970 0.674997 0.699718 0.728301 0.773526 0.817728 0.869395 0.926148 1.010891 1.119454 1.253622 1.446407 1.682550 1.998198 2.429988 2.983539 3.653182 4.446188 5.458314 6.648524 8.077268 9.674050 11.40506 13.27545 15.23178 17.26142 19.33675 21.49001 23.54481 25.61478 27.58534
4 "K7" 0.00000 37.64706 0.00000 1.258256 1.933627 1.500375 1.887567 1.887567 1.887567 1.887567 1.887567 1.887567 1.887567 1.888280 1.888497 1.887323 1.883863 1.882840 1.888983 1.902840 1.916712 1.889719 1.866708 1.831912 1.805456 1.785226 1.773519 1.763627 1.749641 1.739194 1.751881 1.765950 1.750249 1.729594 1.701354 1.755646 1.864112 1.963386 2.060570 2.186769 2.374281 2.593047 2.817211 3.045972 3.283539 3.495447 3.653641 3.737945 3.744788 3.686168 3.574155 3.413255 3.220713 3.013886 2.793070 2.555814 2.319788 2.089381 1.860400 1.641251 1.442552 1.271121 1.126662 1.005573 0.910168 0.835678 0.776168 0.730927 0.701124 0.680669 0.670825 0.659775 0.654142 0.655824 0.661792 0.669618 0.683492 0.703996 0.721586 0.734194 0.763842 0.793856 0.833096 0.871486 0.908635 0.955886 1.008196 1.071499 1.145871 1.232649 1.347428 1.502908 1.679265 1.927387 2.234488 2.588091 3.038349 3.570605 4.224822 5.017860 5.935131 6.977686 8.149772 9.493767 10.89335 12.35955 13.93008 15.55765 17.21252 18.79419 20.46114 22.09293
5 "AM6" 0.00000 50.19608 0.00000 1.449805 2.626800 1.752824 2.157809 2.157809 2.157809 2.157809 2.157809 2.157809 2.157809 2.158320 2.158254 2.156589 2.152301 2.150787 2.157421 2.026617 1.984740 1.974195 1.935997 1.915521 1.907630 1.905273 1.910732 1.921371 1.926906 1.938967 1.950589 1.947231 1.959298 1.985515 2.060225 2.134809 2.212385 2.364682 2.598965 2.865494 3.212946 3.651139 4.126635 4.628550 5.125834 5.541694 5.831139 5.987604 5.979031 5.821856 5.561861 5.228224 4.849781 4.446474 4.036669 3.622939 3.210857 2.808197 2.424201 2.072059 1.760746 1.497591 1.282584 1.118939 0.995246 0.892040 0.817246 0.763340 0.721661 0.694013 0.681458 0.675832 0.672893 0.670964 0.676743 0.688933 0.703987 0.722414 0.745140 0.774046 0.812207 0.851442 0.890379 0.946586 1.010310 1.078649 1.146019 1.227173 1.325394 1.456672 1.601301 1.776842 1.993144 2.266964 2.582284 2.947228 3.419251 3.966466 4.571060 5.285414 6.083908 6.994317 8.054496 9.200677 10.39032 11.71047 13.04214 14.34758 15.79959 17.26466 18.66664 20.09826
6 "AI14" 0.00000 62.74510 0.00000 1.680377 3.611932 2.036550 2.013470 2.013470 2.013470 2.013470 2.013470 2.013470 2.013470 2.012926 2.011813 2.009177 2.004069 2.001515 2.006520 1.965477 2.014845 2.014502 1.983984 1.961611 1.960411 1.968431 1.983114 1.998497 2.014084 2.035036 2.073187 2.106245 2.158603 2.259898 2.380107 2.544105 2.740882 3.054153 3.464754 3.987100 4.652891 5.434740 6.307274 7.231509 8.109564 8.814417 9.265842 9.417035 9.286139 8.933656 8.405635 7.766641 7.082403 6.382605 5.692839 5.019646 4.370557 3.747183 3.159230 2.623443 2.159530 1.780609 1.479072 1.248066 1.075198 0.941473 0.849378 0.786667 0.739528 0.707517 0.694936 0.683430 0.669751 0.676043 0.682542 0.691902 0.709444 0.733548 0.764328 0.799199 0.837734 0.882860 0.942711 1.016251 1.093190 1.175540 1.288447 1.414106 1.564446 1.749838 1.946865 2.184449 2.459753 2.755988 3.102911 3.508602 3.956864 4.468129 5.057835 5.700264 6.445127 7.288554 8.214367 9.228453 10.39397 11.56910 12.80417 14.13604 15.46752 16.80254 18.09604 19.47032
7 "AS2" 0.00000 75.29412 0.00000 1.999887 4.996163 2.540552 2.355104 2.355104 2.355104 2.355104 2.355104 2.355104 2.355104 2.353881 2.351973 2.348266 2.341652 2.338001 2.343145 2.236500 2.147395 2.089137 2.073495 2.077998 2.080029 2.109819 2.147297 2.186914 2.232671 2.285996 2.348389 2.456789 2.578089 2.797723 3.048927 3.321237 3.688287 4.176079 4.840356 5.712622 6.776487 8.067725 9.509024 10.98898 12.36066 13.45923 14.13495 14.31521 14.03958 13.39223 12.48349 11.41677 10.28470 9.147486 8.035982 6.961517 5.938118 4.974325 4.082037 3.293984 2.629573 2.096075 1.682993 1.374740 1.152377 0.992081 0.880649 0.807065 0.754189 0.725066 0.709566 0.699348 0.693215 0.689926 0.695958 0.710811 0.728335 0.758981 0.789033 0.827184 0.878668 0.933649 1.010450 1.104838 1.198158 1.314612 1.449969 1.610105 1.805462 2.032199 2.269304 2.534205 2.805111 3.106260 3.454284 3.798277 4.185740 4.636448 5.160089 5.711740 6.345434 7.077800 7.913082 8.832608 9.833263 10.91718 12.06041 13.30401 14.59354 15.80906 17.05497 18.44777
8 "Q8" 0.00000 87.84314 0.00000 2.344159 6.785823 3.082081 2.380696 2.380696 2.380696 2.380696 2.380696 2.380696 2.380696 2.377979 2.374524 2.369207 2.360915 2.355568 2.359031 2.254589 2.310343 2.291978 2.269902 2.272708 2.285511 2.321804 2.361851 2.405409 2.465801 2.543356 2.648924 2.795377 2.960639 3.216907 3.593319 4.055341 4.633222 5.313624 6.289675 7.547167 9.067993 10.88640 12.95374 15.11028 17.15999 18.85804 19.98706 20.45618 20.27360 19.53662 18.36442 16.87245 15.17781 13.38402 11.58079 9.821334 8.140941 6.586122 5.199559 4.018660 3.065551 2.336410 1.800555 1.424752 1.166374 0.990935 0.874925 0.795547 0.742425 0.709788 0.694472 0.684652 0.676543 0.675505 0.681766 0.691114 0.709772 0.732777 0.764693 0.801603 0.847692 0.895571 0.957539 1.036230 1.128103 1.235154 1.365807 1.504165 1.673102 1.877993 2.086179 2.315084 2.564382 2.818766 3.093783 3.404223 3.730916 4.126540 4.559804 5.068523 5.636413 6.271024 7.011038 7.831955 8.758331 9.730512 10.81911 11.98093 13.16023 14.36676 15.62015 16.92368
9 "H2" 0.00000 100.0000 0.00000 3.075438 10.288170 4.103388 2.368637 2.368637 2.368637 2.368637 2.368637 2.368637 2.368637 2.362924 2.356381 2.347897 2.336379 2.327683 2.327608 2.402778 2.335458 2.304220 2.299058 2.330224 2.380817 2.457700 2.547483 2.652947 2.777341 2.958639 3.207220 3.526863 3.916213 4.399490 5.021781 5.849386 6.783352 7.922643 9.460915 11.45185 13.76771 16.48520 19.54962 22.81683 26.01492 28.80259 30.86483 31.95034 31.97593 31.04381 29.34345 27.06141 24.41091 21.53750 18.56914 15.63457 12.81799 10.21344 7.897800 5.923768 4.316706 3.086154 2.193720 1.582265 1.183281 0.935827 0.777906 0.682039 0.625366 0.593171 0.581213 0.568278 0.566079 0.568085 0.569514 0.578635 0.596696 0.616886 0.647222 0.689286 0.736518 0.802423 0.892184 1.007229 1.138177 1.290434 1.476648 1.704336 1.972858 2.261993 2.580616 2.924547 3.278458 3.673319 4.100442 4.523005 4.983077 5.503075 6.096570 6.743131 7.460676 8.333193 9.285645 10.32009 11.43415 12.60864 13.83953 15.17649 16.46728 17.76636 19.13329 20.52410
10 "Q6" 0.00000 0.00000 12.54902 0.770667 0.724259 0.978906 1.716616 1.716616 1.716616 1.716616 1.716616 1.716616 1.716616 1.718142 1.719245 1.719108 1.716915 1.716969 1.723605 1.844001 1.790287 1.693598 1.637713 1.572485 1.504639 1.451207 1.402255 1.354999 1.304180 1.227215 1.159262 1.111066 1.065984 1.027891 1.015707 0.987407 0.961708 0.902817 0.874968 0.863794 0.853879 0.836633 0.826113 0.815620 0.814088 0.802704 0.781340 0.764574 0.752289 0.736078 0.717974 0.700634 0.684202 0.665274 0.649587 0.638141 0.625640 0.611877 0.595573 0.580818 0.565807 0.554375 0.541673 0.528056 0.518745 0.504217 0.486462 0.471543 0.461016 0.464134 0.468896 0.469018 0.468305 0.460009 0.462596 0.466160 0.472248 0.481959 0.491145 0.497653 0.505102 0.518640 0.534776 0.548443 0.567132 0.585453 0.620274 0.646352 0.681625 0.726901 0.778283 0.872465 0.979333 1.144367 1.406962 1.758703 2.244208 2.923507 3.769810 4.883386 6.267449 7.919983 9.892824 12.04979 14.42412 16.96349 19.67963 22.47901 25.20669 27.98056 30.69978 33.38250
11 "U12" 0.00000 12.54902 12.54902 0.965200 1.126266 1.422021 2.284279 2.284279 2.284279 2.284279 2.284279 2.284279 2.284279 2.286235 2.287625 2.287364 2.284363 2.284349 2.293049 2.201261 2.151630 2.115219 2.054043 1.988021 1.926804 1.884681 1.854377 1.818881 1.785419 1.749474 1.721224 1.692380 1.670229 1.631867 1.610253 1.573228 1.525515 1.576125 1.617453 1.623486 1.636424 1.674272 1.722225 1.738826 1.740731 1.734377 1.725666 1.702551 1.665473 1.615844 1.553643 1.488001 1.422782 1.356466 1.287204 1.213221 1.142962 1.074416 1.004456 0.934011 0.866709 0.805030 0.747417 0.701301 0.661016 0.624334 0.594067 0.566280 0.544468 0.534674 0.536519 0.539084 0.536909 0.537449 0.537255 0.544938 0.562522 0.577799 0.590465 0.606977 0.624080 0.640214 0.656782 0.679989 0.705951 0.737025 0.758964 0.789016 0.826635 0.880974 0.951677 1.018030 1.114495 1.232457 1.407674 1.625935 1.923749 2.279074 2.708804 3.293884 4.012873 4.888294 5.907785 7.040669 8.297449 9.676724 11.13369 12.65938 14.26332 15.91957 17.61859 19.29831
12 "AY6" 0.00000 25.09804 12.54902 1.068813 1.429958 1.681538 2.320752 2.320752 2.320752 2.320752 2.320752 2.320752 2.320752 2.322436 2.323536 2.322950 2.319573 2.319222 2.327725 2.342452 2.315589 2.299792 2.249729 2.193792 2.155781 2.121799 2.102385 2.076170 2.052903 2.031917 1.993538 1.977212 1.968598 1.989187 2.018920 1.993508 1.993736 2.021262 2.078611 2.186046 2.290207 2.407556 2.525621 2.613782 2.676820 2.713325 2.700972 2.643036 2.557938 2.451472 2.328798 2.191159 2.047281 1.907195 1.767860 1.629111 1.490620 1.354957 1.228627 1.110863 1.001682 0.905700 0.823726 0.751747 0.689888 0.640622 0.605751 0.576296 0.550196 0.541766 0.542013 0.540915 0.538647 0.545910 0.555310 0.561212 0.567407 0.582192 0.605558 0.623481 0.643363 0.667526 0.690740 0.724630 0.758947 0.783200 0.818185 0.859719 0.908500 0.964932 1.051037 1.152355 1.277598 1.430158 1.625452 1.880992 2.197156 2.563226 3.008068 3.592247 4.297360 5.096819 6.026046 7.038281 8.174162 9.429438 10.74207 12.16008 13.55138 14.97712 16.35720 17.82776
13 "AE11" 0.00000 37.64706 12.54902 1.203193 1.933944 2.017739 2.524651 2.524651 2.524651 2.524651 2.524651 2.524651 2.524651 2.526159 2.527022 2.526040 2.522013 2.521265 2.530119 2.470701 2.424571 2.401000 2.378245 2.340990 2.315777 2.308956 2.301006 2.296807 2.302070 2.313850 2.328477 2.344853 2.348965 2.387230 2.484170 2.599975 2.716767 2.850005 3.029806 3.249243 3.462228 3.729250 3.993927 4.202267 4.360414 4.448337 4.439406 4.339144 4.169708 3.938181 3.667021 3.383164 3.098944 2.816797 2.541259 2.275161 2.020723 1.782953 1.558320 1.348012 1.171752 1.025660 0.905423 0.807700 0.728634 0.670612 0.624079 0.585784 0.566377 0.552989 0.551043 0.552968 0.547127 0.545495 0.546276 0.556827 0.572630 0.580342 0.598710 0.625460 0.649325 0.673430 0.698186 0.733617 0.777953 0.809961 0.857027 0.920431 0.990500 1.066208 1.165273 1.289115 1.448052 1.652845 1.886455 2.163182 2.496002 2.893557 3.340377 3.896915 4.597078 5.386611 6.276787 7.261915 8.333578 9.502430 10.69098 11.98228 13.27679 14.62506 16.00023 17.33266
14 "S18" 0.00000 50.19608 12.54902 1.428809 2.759037 2.601331 2.818410 2.818410 2.818410 2.818410 2.818410 2.818410 2.818410 2.819555 2.819963 2.818295 2.813214 2.811774 2.821020 2.742106 2.715358 2.678852 2.633031 2.606356 2.609131 2.632221 2.664563 2.698867 2.741924 2.784809 2.835549 2.923233 3.051828 3.212226 3.367346 3.630035 3.903626 4.187741 4.588558 5.024089 5.514429 6.020758 6.522595 6.967882 7.267819 7.413226 7.368977 7.144930 6.795767 6.340592 5.826489 5.289616 4.749726 4.234741 3.754093 3.296429 2.861421 2.452034 2.073305 1.737757 1.449262 1.215443 1.031513 0.888252 0.781319 0.703031 0.652190 0.611704 0.580968 0.557437 0.549915 0.547598 0.546063 0.551062 0.553227 0.563253 0.576576 0.594448 0.612485 0.640679 0.672091 0.699583 0.738950 0.786236 0.836112 0.889410 0.960045 1.049166 1.147694 1.259201 1.404256 1.583553 1.789909 2.031236 2.301533 2.606218 2.972343 3.408943 3.946177 4.519772 5.191874 5.967072 6.847268 7.845493 8.852506 9.954097 11.11839 12.33067 13.59571 14.83407 16.15951 17.60897
15 "I16" 0.00000 62.74510 12.54902 1.765884 4.086074 3.419784 2.855293 2.855293 2.855293 2.855293 2.855293 2.855293 2.855293 2.855247 2.854417 2.851448 2.844990 2.842181 2.850146 2.863057 2.871483 2.871440 2.881690 2.895827 2.944649 3.011613 3.089475 3.178245 3.287037 3.405112 3.564572 3.768491 3.986201 4.315146 4.709207 5.153114 5.649513 6.273794 7.031207 7.870485 8.799364 9.775364 10.69982 11.48210 12.01982 12.24805 12.13430 11.71662 11.05676 10.22024 9.291295 8.336243 7.401089 6.515815 5.690552 4.920476 4.198403 3.524456 2.908973 2.360131 1.902410 1.534570 1.244714 1.027427 0.873808 0.764131 0.682237 0.623459 0.589816 0.569828 0.560051 0.548866 0.542712 0.543158 0.551628 0.569152 0.584154 0.602089 0.626185 0.655957 0.691759 0.728808 0.787733 0.863747 0.931103 1.021239 1.141510 1.270593 1.429646 1.607910 1.819427 2.057933 2.317565 2.607761 2.930961 3.296596 3.723250 4.179730 4.711480 5.341161 6.018257 6.790083 7.664343 8.607492 9.589672 10.71364 11.90601 13.17114 14.43527 15.64367 16.88647 18.18504
16 "AK15" 0.00000 75.29412 12.54902 2.225915 5.909400 4.355391 3.093833 3.093833 3.093833 3.093833 3.093833 3.093833 3.093833 3.092491 3.090258 3.085671 3.077270 3.072777 3.079906 3.228913 3.192106 3.165365 3.173521 3.211736 3.294639 3.406685 3.541353 3.686921 3.858964 4.077306 4.353612 4.674260 5.048824 5.510569 6.090571 6.814447 7.603738 8.534256 9.647011 10.94745 12.42701 13.95040 15.44059 16.78230 17.77175 18.29496 18.30103 17.80111 16.89577 15.71212 14.35835 12.91662 11.46178 10.04792 8.710264 7.444561 6.247421 5.136276 4.133893 3.263029 2.538806 1.964737 1.530512 1.218014 0.999095 0.854014 0.755342 0.687836 0.642103 0.617701 0.603338 0.593760 0.587266 0.591091 0.594950 0.601832 0.615986 0.633657 0.662112 0.696905 0.738057 0.788108 0.849562 0.936508 1.037455 1.148709 1.288130 1.455528 1.646193 1.866775 2.119222 2.398995 2.688736 3.009854 3.355108 3.700324 4.082963 4.534596 5.033295 5.620037 6.256603 7.015538 7.846078 8.739161 9.790655 10.89976 12.00493 13.15755 14.41418 15.76315 17.07137 18.39657
17 "BG4" 0.00000 87.84314 12.54902 2.770967 8.337377 5.468256 3.831801 3.831801 3.831801 3.831801 3.831801 3.831801 3.831801 3.829366 3.825802 3.819299 3.808053 3.801617 3.809483 3.697778 3.637770 3.638531 3.678586 3.748237 3.871308 4.027737 4.207465 4.409223 4.650147 4.930926 5.287719 5.697507 6.213182 6.836409 7.626540 8.541093 9.576252 10.80643 12.28313 14.04712 16.03233 18.15367 20.33101 22.38020 24.09085 25.29072 25.84316 25.73534 25.00160 23.73373 22.07151 20.11346 17.97918 15.75711 13.52244 11.34704 9.285175 7.395477 5.729284 4.318073 3.187889 2.332164 1.719541 1.301959 1.026288 0.853297 0.742530 0.667515 0.624500 0.596143 0.581209 0.572674 0.565683 0.565616 0.572641 0.586976 0.604282 0.619962 0.641621 0.669846 0.706273 0.751480 0.812566 0.888116 0.986988 1.094114 1.221899 1.364888 1.538564 1.742045 1.963120 2.214351 2.476594 2.758434 3.062045 3.398573 3.768161 4.172309 4.630645 5.159035 5.801768 6.512501 7.274822 8.161496 9.112275 10.13588 11.27185 12.48969 13.70243 14.98855 16.32416 17.66052
18 "AX14" 0.00000 100.0000 12.54902 3.699704 11.813146 7.082059 4.253349 4.253349 4.253349 4.253349 4.253349 4.253349 4.253349 4.248340 4.242005 4.232340 4.217353 4.207628 4.213666 4.188293 4.241340 4.325592 4.390910 4.530514 4.725184 4.959820 5.227815 5.526805 5.880304 6.290539 6.775886 7.370119 8.083880 8.937610 9.995943 11.24539 12.66568 14.26398 16.22504 18.50298 21.05203 23.88433 26.89100 29.85495 32.50310 34.59996 35.87629 36.18727 35.56204 34.10823 32.00624 29.42316 26.52897 23.45955 20.32092 17.20756 14.20937 11.40468 8.871787 6.682712 4.887086 3.482631 2.443642 1.717587 1.237212 0.940914 0.758702 0.644021 0.572786 0.535748 0.519306 0.507841 0.500547 0.498213 0.498048 0.505590 0.522904 0.541093 0.571230 0.622325 0.686372 0.758121 0.856187 0.986128 1.134682 1.316395 1.549614 1.805287 2.096205 2.427987 2.794300 3.195525 3.579462 3.990394 4.470738 4.974735 5.478948 6.014315 6.646640 7.381303 8.209917 9.114335 10.12110 11.20612 12.39950 13.62674 14.89187 16.28232 17.72853 19.21540 20.59168 22.04384
19 "U6" 0.00000 0.00000 25.09804 1.003488 0.928561 1.602602 2.955331 2.955331 2.955331 2.955331 2.955331 2.955331 2.955331 2.958285 2.960520 2.960632 2.957210 2.957668 2.969432 2.908726 2.862477 2.785241 2.678071 2.565570 2.450528 2.356520 2.273858 2.191799 2.107162 2.012678 1.912914 1.816127 1.719933 1.634009 1.575225 1.480478 1.377917 1.368204 1.335604 1.306551 1.277006 1.252626 1.237973 1.196017 1.156232 1.127184 1.105758 1.076912 1.041846 1.007691 0.969602 0.934617 0.905594 0.880462 0.856771 0.833288 0.814104 0.797041 0.775680 0.753990 0.732445 0.709248 0.685622 0.664468 0.649060 0.631180 0.611871 0.597285 0.581866 0.571600 0.573344 0.577003 0.573382 0.569697 0.571096 0.576164 0.588144 0.602650 0.613788 0.629321 0.645767 0.662350 0.678922 0.704865 0.736098 0.772797 0.801207 0.846337 0.902860 0.983010 1.084544 1.210308 1.397703 1.624183 1.933031 2.348275 2.910836 3.586283 4.396305 5.419179 6.624521 8.042563 9.621276 11.35895 13.18921 15.10333 17.10169 19.18748 21.28801 23.34392 25.42758 27.42458
20 "AB7" 0.00000 12.54902 25.09804 1.039603 1.180209 1.854352 2.676682 2.676682 2.676682 2.676682 2.676682 2.676682 2.676682 2.678986 2.680628 2.680336 2.676835 2.676839 2.687093 2.803192 2.837718 2.776680 2.710892 2.644042 2.572670 2.526579 2.484946 2.438974 2.392483 2.325256 2.265478 2.203543 2.143756 2.070950 2.028572 2.035165 1.984390 1.977113 1.998445 2.027566 2.057290 2.072059 2.075207 2.081743 2.064670 2.011694 1.949657 1.873273 1.785026 1.699739 1.612661 1.519197 1.429588 1.352515 1.280734 1.208801 1.135798 1.066921 0.998044 0.931661 0.865063 0.807095 0.754807 0.703720 0.660460 0.615040 0.573727 0.555734 0.537462 0.529417 0.524911 0.523903 0.524903 0.527980 0.533121 0.541884 0.550913 0.569429 0.579019 0.586235 0.606797 0.633016 0.658991 0.682417 0.700583 0.728848 0.764303 0.814851 0.852910 0.916140 0.986406 1.081998 1.194619 1.354586 1.534985 1.782682 2.118886 2.518205 2.979130 3.538844 4.251367 5.077583 6.008152 7.055916 8.260667 9.479823 10.79024 12.22192 13.67987 15.16311 16.62833 18.05756
21 "P7" 0.00000 25.09804 25.09804 1.167943 1.583927 2.438388 3.208558 3.208558 3.208558 3.208558 3.208558 3.208558 3.208558 3.211162 3.212969 3.212452 3.208083 3.207908 3.219993 3.243979 3.206102 3.187955 3.129512 3.073153 3.037477 3.013849 2.996511 2.986641 2.972864 2.951359 2.933998 2.942344 2.945589 2.927582 2.970620 3.028729 3.057937 3.098628 3.186712 3.297206 3.395705 3.482489 3.564575 3.589332 3.567282 3.507127 3.395465 3.245982 3.063346 2.857320 2.642967 2.430074 2.221986 2.023109 1.840805 1.666673 1.507203 1.355575 1.210172 1.080478 0.962942 0.857614 0.772463 0.701442 0.640533 0.595753 0.559956 0.531401 0.512402 0.499161 0.497592 0.491160 0.489551 0.493342 0.501147 0.512134 0.523208 0.536763 0.549240 0.565227 0.587822 0.611195 0.637205 0.667826 0.702046 0.730965 0.768588 0.817269 0.872872 0.950543 1.046587 1.149366 1.298311 1.463881 1.655672 1.911671 2.239422 2.607305 3.075341 3.654537 4.304785 5.050816 5.904277 6.897709 7.953644 9.055922 10.21107 11.48301 12.78167 14.08790 15.41273 16.80517
22 "M12" 0.00000 37.64706 25.09804 1.412363 2.320287 3.338013 3.571007 3.571007 3.571007 3.571007 3.571007 3.571007 3.571007 3.573296 3.574677 3.573455 3.567931 3.567055 3.579813 3.738894 3.793143 3.733806 3.695934 3.680989 3.688967 3.722056 3.762818 3.808579 3.860037 3.902732 3.961502 4.022236 4.119539 4.272456 4.436580 4.643603 4.867648 5.034244 5.226870 5.517425 5.761476 5.966370 6.148491 6.256252 6.284767 6.187400 5.972018 5.672613 5.308321 4.890462 4.449660 4.013006 3.591274 3.200394 2.837877 2.493760 2.174622 1.877710 1.607112 1.364741 1.157397 0.993619 0.859162 0.752230 0.671589 0.614572 0.564377 0.531712 0.515157 0.500792 0.497190 0.491684 0.490287 0.487680 0.497483 0.500752 0.506168 0.525730 0.550444 0.571929 0.591870 0.616816 0.657446 0.692449 0.728870 0.776149 0.833505 0.899551 0.982930 1.092469 1.230157 1.386660 1.560734 1.787322 2.064977 2.376704 2.738401 3.181868 3.695247 4.300994 4.998372 5.780902 6.636325 7.655281 8.694055 9.804892 10.99083 12.19323 13.50960 14.86270 16.21484 17.56447
