demo/showcase/baryta gloss 315gsm.ti3
CTI3

DESCRIPTOR "Invented paper for the showcase — derived from the demo measurement"
ORIGINATOR "scripts/make_showcase_measurements.py"
CREATED "Demo"
DEVICE_CLASS "OUTPUT"
COLOR_REP "iRGB_XYZ"

NUMBER_OF_FIELDS 8
BEGIN_DATA_FORMAT
SAMPLE_ID SAMPLE_LOC RGB_R RGB_G RGB_B XYZ_X XYZ_Y XYZ_Z
END_DATA_FORMAT

NUMBER_OF_SETS 1168
BEGIN_DATA
1 "AI1" 0.00000 0.00000 0.00000 0.484009 0.443061 0.600734 
2 "S2" 0.00000 12.54902 0.00000 0.724719 0.866624 0.905928 
3 "U1" 0.00000 25.09804 0.00000 0.899545 1.242250 1.159753 
4 "K7" 0.00000 37.64706 0.00000 1.151348 1.836282 1.569205 
5 "AM6" 0.00000 50.19608 0.00000 1.341754 2.526693 1.824721 
6 "AI14" 0.00000 62.74510 0.00000 1.570951 3.507900 2.111893 
7 "AS2" 0.00000 75.29412 0.00000 1.888556 4.886617 2.622016 
8 "Q8" 0.00000 87.84314 0.00000 2.230774 6.669146 3.170122 
9 "H2" 0.00000 100.00000 0.00000 2.957692 10.157540 4.203834 
10 "Q6" 0.00000 0.00000 12.54902 0.666667 0.631732 1.041403 
11 "U12" 0.00000 12.54902 12.54902 0.860040 1.032137 1.489900 
12 "AY6" 0.00000 25.09804 12.54902 0.963035 1.334620 1.752569 
13 "AE11" 0.00000 37.64706 12.54902 1.096613 1.836598 2.092853 
14 "S18" 0.00000 50.19608 12.54902 1.320884 2.658403 2.683533 
15 "I16" 0.00000 62.74510 12.54902 1.655948 3.980153 3.511927 
16 "AK15" 0.00000 75.29412 12.54902 2.113236 5.796215 4.458898 
17 "BG4" 0.00000 87.84314 12.54902 2.655037 8.214519 5.585279 
18 "AX14" 0.00000 100.00000 12.54902 3.578235 11.676440 7.218683 
19 "U6" 0.00000 0.00000 25.09804 0.898099 0.835220 1.672674 
20 "AB7" 0.00000 12.54902 25.09804 0.933999 1.085866 1.927482 
21 "P7" 0.00000 25.09804 25.09804 1.061574 1.487975 2.518611 
22 "M12" 0.00000 37.64706 25.09804 1.304536 2.221401 3.429163 
23 "AL10" 0.00000 50.19608 25.09804 1.717089 3.390915 4.694796 
24 "H13" 0.00000 62.74510 25.09804 2.197872 5.054911 6.347569 
25 "AG3" 0.00000 75.29412 25.09804 2.852928 7.333132 8.372316 
26 "BF8" 0.00000 87.84314 25.09804 3.460351 10.037550 9.962877 
27 "AR2" 0.00000 100.00000 25.09804 4.867669 14.136360 12.049760 
28 "Z5" 12.54902 0.00000 0.00000 0.969054 0.837841 0.687250 
29 "BE12" 12.54902 12.54902 0.00000 1.261579 1.341665 0.793699 
30 "AB14" 12.54902 25.09804 0.00000 1.380434 1.748162 1.037664 
31 "BA11" 12.54902 37.64706 0.00000 1.833510 2.684295 1.472396 
32 "A4" 12.54902 50.19608 0.00000 2.047903 3.574177 1.616491 
33 "AJ17" 12.54902 62.74510 0.00000 2.321130 4.587925 1.967365 
34 "AC3" 12.54902 75.29412 0.00000 2.502955 5.910637 2.250094 
35 "L4" 12.54902 87.84314 0.00000 2.636746 7.516264 2.554429 
36 "AB15" 12.54902 100.00000 0.00000 3.326228 11.023810 3.536592 
37 "AC6" 12.54902 0.00000 12.54902 0.881549 0.704302 0.884813 
38 "E12" 12.54902 12.54902 12.54902 1.399835 1.469337 1.638898 
39 "E16" 12.54902 25.09804 12.54902 1.718989 2.129150 2.040353 
40 "X3" 12.54902 37.64706 12.54902 1.956810 2.783681 2.389766 
41 "AH6" 12.54902 50.19608 12.54902 2.299159 3.850350 2.743003 
42 "A10" 12.54902 62.74510 12.54902 2.825025 5.547022 3.484856 
43 "BB11" 12.54902 75.29412 12.54902 3.160122 7.253131 4.043504 
44 "Z13" 12.54902 87.84314 12.54902 3.867645 10.406100 5.260136 
45 "F7" 12.54902 100.00000 12.54902 4.978628 14.913040 7.369786 
46 "AC15" 12.54902 0.00000 25.09804 1.187517 0.967792 1.571919 
47 "BL9" 12.54902 12.54902 25.09804 1.620412 1.696409 2.488261 
48 "P5" 12.54902 25.09804 25.09804 1.943712 2.307678 2.937684 
49 "G1" 12.54902 37.64706 25.09804 2.374633 3.191743 3.846726 
50 "I7" 12.54902 50.19608 25.09804 2.846122 4.564083 4.757469 
51 "C5" 12.54902 62.74510 25.09804 3.772316 6.950423 6.707464 
52 "BH13" 12.54902 75.29412 25.09804 4.248772 9.061298 7.567005 
53 "AU10" 12.54902 87.84314 25.09804 5.600889 13.292320 10.359100 
54 "S4" 12.54902 100.00000 25.09804 6.881912 18.159150 12.423740 
55 "U10" 25.09804 0.00000 0.00000 1.558992 1.267901 0.832934 
56 "BK2" 25.09804 12.54902 0.00000 1.966734 1.900650 0.999079 
57 "L18" 25.09804 25.09804 0.00000 2.819986 3.141572 1.362683 
58 "K10" 25.09804 37.64706 0.00000 3.077718 3.969718 1.629691 
59 "AT10" 25.09804 50.19608 0.00000 3.319959 4.823324 1.806246 
60 "L8" 25.09804 62.74510 0.00000 3.497444 5.986115 1.865092 
61 "AC9" 25.09804 75.29412 0.00000 3.614836 7.427752 1.959721 
62 "BI17" 25.09804 87.84314 0.00000 3.611435 9.207310 1.998040 
63 "BC15" 25.09804 100.00000 0.00000 4.759086 13.710430 3.042932 
64 "BE16" 25.09804 0.00000 12.54902 1.692094 1.258755 1.116591 
65 "AF5" 25.09804 12.54902 12.54902 2.149359 2.077372 1.761761 
66 "M10" 25.09804 25.09804 12.54902 2.775459 2.949198 2.082414 
67 "BF13" 25.09804 37.64706 12.54902 3.069238 3.742774 2.364365 
68 "AX4" 25.09804 50.19608 12.54902 3.517308 5.012485 2.719815 
69 "AI10" 25.09804 62.74510 12.54902 4.063923 6.899577 3.175862 
70 "AH17" 25.09804 75.29412 12.54902 4.902049 9.708638 3.955309 
71 "C4" 25.09804 87.84314 12.54902 6.133662 13.866350 5.264838 
72 "AN7" 25.09804 100.00000 12.54902 7.004958 18.409810 6.796390 
73 "I4" 25.09804 0.00000 25.09804 1.877120 1.337911 1.688395 
74 "BM15" 25.09804 12.54902 25.09804 2.537772 2.258346 2.545717 
75 "M6" 25.09804 25.09804 25.09804 2.993983 3.032850 2.963763 
76 "AT18" 25.09804 37.64706 25.09804 3.527778 4.139232 3.740768 
77 "A12" 25.09804 50.19608 25.09804 4.617658 6.462059 5.250724 
78 "AN15" 25.09804 62.74510 25.09804 5.429023 8.602387 6.155320 
79 "J5" 25.09804 75.29412 25.09804 6.663714 12.089110 7.752229 
80 "L10" 25.09804 87.84314 25.09804 8.167714 16.880030 10.108090 
81 "AP18" 25.09804 100.00000 25.09804 9.390066 22.054880 11.968510 
82 "B15" 37.64706 0.00000 0.00000 3.228627 2.448570 1.159366 
83 "AL18" 37.64706 12.54902 0.00000 3.703372 3.268327 1.305388 
84 "V12" 37.64706 25.09804 0.00000 4.415549 4.381286 1.615860 
85 "V8" 37.64706 37.64706 0.00000 4.725916 5.308133 1.688975 
86 "U8" 37.64706 50.19608 0.00000 5.013430 6.467402 1.758358 
87 "BG2" 37.64706 62.74510 0.00000 5.289370 7.940018 1.787608 
88 "AG4" 37.64706 75.29412 0.00000 5.510167 9.733264 1.887439 
89 "Y10" 37.64706 87.84314 0.00000 5.908679 12.485430 1.820910 
90 "U18" 37.64706 100.00000 0.00000 7.830348 18.261590 2.937145 
91 "AM11" 37.64706 0.00000 12.54902 3.265582 2.380465 1.723291 
92 "BF15" 37.64706 12.54902 12.54902 3.630352 3.037171 1.851139 
93 "T11" 37.64706 25.09804 12.54902 4.257818 3.914578 2.169655 
94 "AV13" 37.64706 37.64706 12.54902 4.837244 5.119468 2.341759 
95 "T13" 37.64706 50.19608 12.54902 5.641534 6.994465 2.692606 
96 "BK3" 37.64706 62.74510 12.54902 6.387629 9.141164 2.984633 
97 "Q9" 37.64706 75.29412 12.54902 7.363466 12.360020 3.685995 
98 "AU1" 37.64706 87.84314 12.54902 8.723957 16.993890 4.754014 
99 "S8" 37.64706 100.00000 12.54902 10.021590 22.435540 6.168527 
100 "A2" 37.64706 0.00000 25.09804 3.369816 2.120920 2.079388 
101 "AF7" 37.64706 12.54902 25.09804 3.930984 3.103194 2.783617 
102 "AP16" 37.64706 25.09804 25.09804 4.811233 4.212056 3.082119 
103 "BK13" 37.64706 37.64706 25.09804 5.640882 5.776571 3.877494 
104 "AE4" 37.64706 50.19608 25.09804 6.834969 8.153819 4.769010 
105 "AH10" 37.64706 62.74510 25.09804 8.519187 11.663120 6.244699 
106 "T14" 37.64706 75.29412 25.09804 10.053320 15.710330 7.590286 
107 "BI16" 37.64706 87.84314 25.09804 11.598920 20.744800 9.558654 
108 "C12" 37.64706 100.00000 25.09804 13.556170 27.146750 12.157270 
109 "AM9" 50.19608 0.00000 0.00000 5.262785 3.890570 1.696483 
110 "AD12" 50.19608 12.54902 0.00000 5.868031 4.741293 1.643694 
111 "V3" 50.19608 25.09804 0.00000 6.577965 5.746302 1.677263 
112 "I10" 50.19608 37.64706 0.00000 7.361047 7.181862 1.640418 
113 "R2" 50.19608 50.19608 0.00000 7.806467 8.650610 1.678883 
114 "S3" 50.19608 62.74510 0.00000 8.524363 10.868400 1.738763 
115 "AY12" 50.19608 75.29412 0.00000 8.954226 13.360730 1.727976 
116 "BK7" 50.19608 87.84314 0.00000 9.600676 16.629750 1.735240 
117 "W14" 50.19608 100.00000 0.00000 12.546690 23.726440 2.819543 
118 "AK6" 50.19608 0.00000 12.54902 4.975391 3.319411 1.900198 
119 "AK8" 50.19608 12.54902 12.54902 5.947794 4.381920 1.995261 
120 "M16" 50.19608 25.09804 12.54902 6.800453 5.530175 2.232873 
121 "G14" 50.19608 37.64706 12.54902 7.998781 7.441659 2.542842 
122 "BF18" 50.19608 50.19608 12.54902 8.817185 9.401613 2.666687 
123 "N9" 50.19608 62.74510 12.54902 10.059390 12.463430 3.007436 
124 "X15" 50.19608 75.29412 12.54902 11.726620 16.641810 3.598168 
125 "AI4" 50.19608 87.84314 12.54902 13.549200 22.056970 4.534625 
126 "R15" 50.19608 100.00000 12.54902 15.404970 28.347610 5.734279 
127 "AP17" 50.19608 0.00000 25.09804 5.254133 3.174304 2.459908 
128 "BE11" 50.19608 12.54902 25.09804 6.242416 4.406531 2.908488 
129 "BH15" 50.19608 25.09804 25.09804 7.446724 5.852451 3.395776 
130 "AB18" 50.19608 37.64706 25.09804 9.012286 8.177338 4.172879 
131 "AX1" 50.19608 50.19608 25.09804 10.709750 11.194510 4.985900 
132 "AW14" 50.19608 62.74510 25.09804 12.822580 15.296310 6.190728 
133 "BE8" 50.19608 75.29412 25.09804 14.663480 19.969490 7.196333 
134 "Z9" 50.19608 87.84314 25.09804 17.001550 26.217690 9.088012 
135 "AD13" 50.19608 100.00000 25.09804 18.692530 32.380600 10.451570 
136 "AE17" 62.74510 0.00000 0.00000 8.042641 5.339865 1.842717 
137 "P11" 62.74510 12.54902 0.00000 8.861848 6.350702 1.737442 
138 "BJ13" 62.74510 25.09804 0.00000 9.534519 7.283845 1.606883 
139 "BC13" 62.74510 37.64706 0.00000 10.702810 9.050522 1.571337 
140 "E9" 62.74510 50.19608 0.00000 12.472530 11.869370 1.573318 
141 "AB8" 62.74510 62.74510 0.00000 13.294590 14.499040 1.618255 
142 "H15" 62.74510 75.29412 0.00000 14.989900 18.588550 1.624136 
143 "V2" 62.74510 87.84314 0.00000 16.561060 23.368050 1.719836 
144 "V14" 62.74510 100.00000 0.00000 20.054630 30.879660 2.702826 
145 "AV11" 62.74510 0.00000 12.54902 7.911630 4.839658 2.133021 
146 "L16" 62.74510 12.54902 12.54902 9.521849 6.321352 2.234794 
147 "J14" 62.74510 25.09804 12.54902 11.001760 8.018601 2.413061 
148 "BH10" 62.74510 37.64706 12.54902 12.043750 9.935135 2.422621 
149 "AO1" 62.74510 50.19608 12.54902 14.126060 13.202490 2.744920 
150 "N8" 62.74510 62.74510 12.54902 15.838380 16.891440 3.005902 
151 "A13" 62.74510 75.29412 12.54902 18.872090 22.816450 3.790412 
152 "AV9" 62.74510 87.84314 12.54902 19.856450 27.507880 4.120346 
153 "AY11" 62.74510 100.00000 12.54902 22.990780 35.409110 5.142381 
154 "AQ5" 62.74510 0.00000 25.09804 8.823891 5.038673 3.040450 
155 "AL7" 62.74510 12.54902 25.09804 10.342410 6.669057 3.345266 
156 "X14" 62.74510 25.09804 25.09804 11.946450 8.590665 3.804288 
157 "T1" 62.74510 37.64706 25.09804 14.161290 11.651850 4.746008 
158 "BK5" 62.74510 50.19608 25.09804 16.391050 15.348910 5.126520 
159 "AP9" 62.74510 62.74510 25.09804 18.904250 19.957180 6.105596 
160 "Y1" 62.74510 75.29412 25.09804 21.758100 25.926600 7.355199 
161 "M9" 62.74510 87.84314 25.09804 24.473200 32.800650 8.729064 
162 "K14" 62.74510 100.00000 25.09804 26.929730 40.037620 9.428590 
163 "AA10" 75.29412 0.00000 0.00000 12.649430 7.538491 1.976552 
164 "U4" 75.29412 12.54902 0.00000 13.817270 8.716652 1.801512 
165 "AY2" 75.29412 25.09804 0.00000 14.223530 9.611694 1.616346 
166 "AP12" 75.29412 37.64706 0.00000 16.152830 11.878640 1.528443 
167 "BL5" 75.29412 50.19608 0.00000 17.958380 14.589630 1.495506 
168 "I2" 75.29412 62.74510 0.00000 21.215970 19.577990 1.546359 
169 "AN9" 75.29412 75.29412 0.00000 23.655180 24.744260 1.564671 
170 "AU13" 75.29412 87.84314 0.00000 26.432330 31.032670 1.678623 
171 "H9" 75.29412 100.00000 0.00000 30.980080 39.785520 2.446826 
172 "BK4" 75.29412 0.00000 12.54902 13.145950 7.359696 2.479966 
173 "AF13" 75.29412 12.54902 12.54902 14.466320 8.775517 2.332924 
174 "AI3" 75.29412 25.09804 12.54902 17.129590 11.316120 2.522950 
175 "BF2" 75.29412 37.64706 12.54902 18.764050 13.772700 2.571758 
176 "U17" 75.29412 50.19608 12.54902 21.465360 17.846550 2.854632 
177 "AL15" 75.29412 62.74510 12.54902 24.035790 22.566660 2.941550 
178 "AK1" 75.29412 75.29412 12.54902 27.243980 28.764260 3.377214 
179 "BF9" 75.29412 87.84314 12.54902 30.194710 35.671380 3.695330 
180 "E15" 75.29412 100.00000 12.54902 34.621560 45.238740 4.589458 
181 "R13" 0.00000 0.00000 0.00000 0.473805 0.434979 0.553300 
182 "AZ12" 100.00000 100.00000 100.00000 81.002920 84.198810 73.259740 
183 "AQ18" 75.29412 0.00000 25.09804 14.347900 7.761786 3.541686 
184 "BD11" 75.29412 12.54902 25.09804 16.741700 10.002980 4.025099 
185 "BG8" 75.29412 25.09804 25.09804 18.679890 12.387110 4.242459 
186 "F15" 75.29412 37.64706 25.09804 22.098010 16.660710 5.335217 
187 "AZ4" 75.29412 50.19608 25.09804 24.297240 20.549570 5.655241 
188 "I5" 75.29412 62.74510 25.09804 28.182170 26.967740 6.759253 
189 "AM5" 75.29412 75.29412 25.09804 30.803190 32.875050 7.126915 
190 "AF14" 75.29412 87.84314 25.09804 33.866180 40.189010 7.597474 
191 "K2" 75.29412 100.00000 25.09804 37.276180 48.768070 8.245711 
192 "AI11" 87.84314 0.00000 0.00000 20.207330 10.995590 2.094012 
193 "AL13" 87.84314 12.54902 0.00000 21.385980 11.969670 1.879386 
194 "AW6" 87.84314 25.09804 0.00000 22.814400 13.616470 1.637587 
195 "AR11" 87.84314 37.64706 0.00000 25.192970 16.130110 1.424176 
196 "BC3" 87.84314 50.19608 0.00000 28.616340 19.973960 1.361889 
197 "AT6" 87.84314 62.74510 0.00000 32.568250 25.400890 1.333348 
198 "O9" 87.84314 75.29412 0.00000 37.328150 33.276910 1.460942 
199 "AZ13" 87.84314 87.84314 0.00000 40.990570 40.971270 1.619126 
200 "AM15" 87.84314 100.00000 0.00000 47.297680 52.146870 2.166598 
201 "L14" 87.84314 0.00000 12.54902 21.518090 11.369910 2.901251 
202 "AL2" 87.84314 12.54902 12.54902 23.963590 13.416910 2.808704 
203 "AG13" 87.84314 25.09804 12.54902 26.630450 16.071620 2.926353 
204 "M5" 87.84314 37.64706 12.54902 29.635110 19.711280 2.883362 
205 "BL7" 87.84314 50.19608 12.54902 32.453720 23.915560 3.005785 
206 "Y15" 87.84314 62.74510 12.54902 36.075400 30.123900 3.117074 
207 "BG16" 87.84314 75.29412 12.54902 39.938440 37.144020 3.286959 
208 "AK3" 87.84314 87.84314 12.54902 45.004120 46.702300 3.461548 
209 "AR18" 87.84314 100.00000 12.54902 48.996290 55.954840 3.761752 
210 "AF4" 87.84314 0.00000 25.09804 22.507340 11.648950 4.253926 
211 "R18" 87.84314 12.54902 25.09804 26.630760 15.052200 4.997652 
212 "AD15" 87.84314 25.09804 25.09804 29.441660 18.310880 5.207161 
213 "BL17" 87.84314 37.64706 25.09804 32.492790 22.505920 5.820500 
214 "O18" 87.84314 50.19608 25.09804 36.332940 28.350120 6.505901 
215 "S10" 87.84314 62.74510 25.09804 39.553300 34.341700 6.784261 
216 "O3" 87.84314 75.29412 25.09804 44.520680 42.941290 7.488651 
217 "Z4" 87.84314 87.84314 25.09804 47.839750 50.938880 7.145102 
218 "BF7" 87.84314 100.00000 25.09804 50.699080 58.984520 6.936062 
219 "BC2" 100.00000 0.00000 0.00000 32.944340 16.794670 2.580319 
220 "D16" 100.00000 12.54902 0.00000 33.119260 16.983700 2.236276 
221 "AX8" 100.00000 25.09804 0.00000 33.053040 17.350290 1.756354 
222 "AT1" 100.00000 37.64706 0.00000 37.806660 21.193980 1.294655 
223 "AB3" 100.00000 50.19608 0.00000 43.050220 26.426020 1.213485 
224 "D9" 100.00000 62.74510 0.00000 48.860690 34.039570 1.262750 
225 "Q13" 100.00000 75.29412 0.00000 54.450090 42.305210 1.397989 
226 "AD18" 100.00000 87.84314 0.00000 60.623030 52.425910 1.570843 
227 "AQ2" 100.00000 100.00000 0.00000 67.275740 64.609150 1.781619 
228 "AD17" 100.00000 0.00000 12.54902 33.214230 16.771960 3.634084 
229 "AP14" 100.00000 12.54902 12.54902 35.843560 18.843150 3.337023 
230 "AH16" 100.00000 25.09804 12.54902 39.730770 22.252590 3.210228 
231 "AO8" 100.00000 37.64706 12.54902 42.884700 26.045650 3.190674 
232 "W3" 100.00000 50.19608 12.54902 47.262920 31.712780 3.376897 
233 "AV4" 100.00000 62.74510 12.54902 51.420180 38.519270 3.422920 
234 "AE1" 100.00000 75.29412 12.54902 56.145280 46.669020 3.256681 
235 "BM1" 100.00000 87.84314 12.54902 61.504020 56.663930 3.175764 
236 "BH12" 100.00000 100.00000 12.54902 67.700070 68.919240 3.012391 
237 "I8" 100.00000 0.00000 25.09804 33.418580 16.810920 5.204333 
238 "Q2" 100.00000 12.54902 25.09804 38.759200 20.920060 5.865465 
239 "AQ9" 100.00000 25.09804 25.09804 42.282460 24.934470 6.259876 
240 "F1" 100.00000 37.64706 25.09804 47.000350 30.809550 7.001549 
241 "J8" 100.00000 50.19608 25.09804 50.324890 36.678940 7.265154 
242 "BK11" 100.00000 62.74510 25.09804 53.822690 42.946420 7.256380 
243 "AC5" 100.00000 75.29412 25.09804 58.790860 51.877320 6.999596 
244 "BJ5" 100.00000 87.84314 25.09804 63.527430 61.458700 6.218305 
245 "G2" 100.00000 100.00000 25.09804 69.306980 72.752180 5.617454 
246 "B1" 0.00000 0.00000 37.64706 1.099661 0.968015 2.558208 
247 "A18" 0.00000 12.54902 37.64706 1.173530 1.271299 3.282760 
248 "Y7" 0.00000 25.09804 37.64706 1.341757 1.783601 4.119717 
249 "BA9" 0.00000 37.64706 37.64706 1.636704 2.624663 5.296278 
250 "G13" 0.00000 50.19608 37.64706 2.252964 4.213041 7.727682 
251 "AQ1" 0.00000 62.74510 37.64706 2.944899 6.271544 10.264500 
252 "BI4" 0.00000 75.29412 37.64706 3.765845 8.960397 13.034600 
253 "AS10" 0.00000 87.84314 37.64706 4.534641 11.877710 15.445740 
254 "AM7" 0.00000 100.00000 37.64706 6.396517 16.161790 18.560060 
255 "BI10" 0.00000 0.00000 50.19608 1.360079 1.155211 3.674531 
256 "T4" 0.00000 12.54902 50.19608 1.536723 1.537666 5.035607 
257 "BG3" 0.00000 25.09804 50.19608 1.831439 2.196834 6.650947 
258 "W11" 0.00000 37.64706 50.19608 2.361094 3.393435 9.042859 
259 "BJ17" 0.00000 50.19608 50.19608 2.999227 5.025245 11.727240 
260 "AU3" 0.00000 62.74510 50.19608 4.043277 7.685441 15.901890 
261 "AQ11" 0.00000 75.29412 50.19608 4.960909 10.598780 19.512830 
262 "L17" 0.00000 87.84314 50.19608 6.044516 13.764300 23.237300 
263 "AB13" 0.00000 100.00000 50.19608 8.248147 18.273060 26.742360 
264 "F17" 0.00000 0.00000 62.74510 1.848610 1.366319 6.308781 
265 "J17" 0.00000 12.54902 62.74510 2.108629 1.899846 8.160782 
266 "J1" 0.00000 25.09804 62.74510 2.611494 2.830355 10.690640 
267 "BM11" 0.00000 37.64706 62.74510 3.258162 4.178016 13.817630 
268 "AF15" 0.00000 50.19608 62.74510 4.168220 6.256502 17.918410 
269 "AR8" 0.00000 62.74510 62.74510 5.290398 9.045414 22.417560 
270 "P8" 0.00000 75.29412 62.74510 6.178954 11.816040 26.426710 
271 "BD13" 0.00000 87.84314 62.74510 7.461953 15.104370 30.447170 
272 "AN13" 0.00000 100.00000 62.74510 10.035730 19.956110 34.741620 
273 "BM14" 12.54902 0.00000 37.64706 1.543781 1.190827 2.818601 
274 "Y13" 12.54902 12.54902 37.64706 1.866655 1.809804 3.768281 
275 "AY7" 12.54902 25.09804 37.64706 2.235759 2.495140 4.498861 
276 "AV16" 12.54902 37.64706 37.64706 2.770540 3.536373 5.947453 
277 "AY10" 12.54902 50.19608 37.64706 3.410829 5.114258 7.501887 
278 "BK15" 12.54902 62.74510 37.64706 4.333919 7.533561 9.747009 
279 "BC8" 12.54902 75.29412 37.64706 5.595033 10.968240 12.613390 
280 "J3" 12.54902 87.84314 37.64706 7.370365 15.777090 16.458630 
281 "BA10" 12.54902 100.00000 37.64706 9.078656 20.945530 19.687510 
282 "T17" 12.54902 0.00000 50.19608 2.050326 1.442021 4.826456 
283 "AN14" 12.54902 12.54902 50.19608 2.339075 2.039910 5.790151 
284 "AE6" 12.54902 25.09804 50.19608 2.729982 2.810564 6.804915 
285 "H4" 12.54902 37.64706 50.19608 3.594098 4.390858 9.208029 
286 "AB16" 12.54902 50.19608 50.19608 4.390751 6.288112 11.481550 
287 "AR9" 12.54902 62.74510 50.19608 5.650956 9.077000 14.934320 
288 "AE2" 12.54902 75.29412 50.19608 6.985653 12.538690 18.501520 
289 "BJ11" 12.54902 87.84314 50.19608 9.109117 17.743950 23.391730 
290 "AM17" 12.54902 100.00000 50.19608 11.500410 23.572720 28.780480 
291 "AX6" 12.54902 0.00000 62.74510 2.631908 1.681900 7.674858 
292 "BB7" 12.54902 12.54902 62.74510 3.009085 2.399223 8.868024 
293 "O15" 12.54902 25.09804 62.74510 3.685117 3.512350 10.908030 
294 "G3" 12.54902 37.64706 62.74510 4.708951 5.392035 14.046360 
295 "AW12" 12.54902 50.19608 62.74510 5.665463 7.490510 17.031960 
296 "BL2" 12.54902 62.74510 62.74510 6.926257 10.463920 21.005410 
297 "AQ13" 12.54902 75.29412 62.74510 8.843888 14.568850 26.197130 
298 "P14" 12.54902 87.84314 62.74510 11.067690 19.621600 32.298820 
299 "BL18" 12.54902 100.00000 62.74510 13.833770 25.639170 38.173920 
300 "BH17" 25.09804 0.00000 37.64706 2.324267 1.503741 3.050146 
301 "AK18" 25.09804 12.54902 37.64706 2.912134 2.396346 4.150169 
302 "AU18" 25.09804 25.09804 37.64706 3.353644 3.184518 4.669155 
303 "AS9" 25.09804 37.64706 37.64706 4.209470 4.750960 5.981899 
304 "AJ9" 25.09804 50.19608 37.64706 5.334098 7.041557 7.775891 
305 "BD17" 25.09804 62.74510 37.64706 6.715794 10.039670 9.885478 
306 "AT11" 25.09804 75.29412 37.64706 8.335129 14.130860 12.589440 
307 "AS4" 25.09804 87.84314 37.64706 10.262200 19.455450 16.133020 
308 "U14" 25.09804 100.00000 37.64706 12.276940 25.531910 20.406840 
309 "X13" 25.09804 0.00000 50.19608 2.955467 1.785312 5.300523 
310 "AT13" 25.09804 12.54902 50.19608 3.470307 2.661155 6.385079 
311 "AR13" 25.09804 25.09804 50.19608 3.992871 3.611721 7.037700 
312 "AV15" 25.09804 37.64706 50.19608 5.149317 5.557644 9.182238 
313 "U5" 25.09804 50.19608 50.19608 6.461094 8.154565 11.724420 
314 "BM12" 25.09804 62.74510 50.19608 8.032033 11.491890 14.622210 
315 "AG7" 25.09804 75.29412 50.19608 10.378970 16.244970 18.926050 
316 "BA12" 25.09804 87.84314 50.19608 12.630780 21.975330 23.520910 
317 "I9" 25.09804 100.00000 50.19608 15.482840 28.793240 29.569100 
318 "AA11" 25.09804 0.00000 62.74510 3.761442 2.111717 8.658669 
319 "E5" 25.09804 12.54902 62.74510 4.568783 3.222485 9.957374 
320 "AL4" 25.09804 25.09804 62.74510 5.073211 4.342929 11.119000 
321 "AJ15" 25.09804 37.64706 62.74510 6.478576 6.744521 14.011210 
322 "AI13" 25.09804 50.19608 62.74510 8.151503 9.791763 17.717980 
323 "AD4" 25.09804 62.74510 62.74510 9.733832 13.225700 20.958600 
324 "BA18" 25.09804 75.29412 62.74510 12.128420 18.204020 26.030480 
325 "O12" 25.09804 87.84314 62.74510 15.149450 24.488600 32.528730 
326 "BI14" 25.09804 100.00000 62.74510 17.674670 30.601880 38.317480 
327 "Q5" 37.64706 0.00000 37.64706 3.715137 2.205621 3.365244 
328 "AK14" 37.64706 12.54902 37.64706 4.571709 3.336776 4.399374 
329 "BH7" 37.64706 25.09804 37.64706 5.304829 4.427292 4.834718 
330 "AW2" 37.64706 37.64706 37.64706 6.550250 6.577566 6.244740 
331 "O2" 37.64706 50.19608 37.64706 8.117085 9.387250 7.959012 
332 "O11" 37.64706 62.74510 37.64706 10.182290 13.351680 10.175770 
333 "D6" 37.64706 75.29412 37.64706 12.724500 18.726790 12.935410 
334 "AP6" 37.64706 87.84314 37.64706 14.583340 24.286210 15.312870 
335 "BK10" 37.64706 100.00000 37.64706 16.427560 30.239740 19.247650 
336 "AL3" 37.64706 0.00000 50.19608 4.646273 2.571399 5.875653 
337 "AC2" 37.64706 12.54902 50.19608 5.289865 3.621729 6.683448 
338 "O16" 37.64706 25.09804 50.19608 6.327504 5.137139 7.593972 
339 "AG10" 37.64706 37.64706 50.19608 7.849501 7.552347 9.834003 
340 "L15" 37.64706 50.19608 50.19608 9.868946 11.107610 12.542450 
341 "R1" 37.64706 62.74510 50.19608 12.281050 15.534780 15.507080 
342 "AV8" 37.64706 75.29412 50.19608 14.480380 20.475850 18.652640 
343 "BL3" 37.64706 87.84314 50.19608 17.376140 27.124610 23.150370 
344 "U7" 37.64706 100.00000 50.19608 19.909830 33.804520 28.274300 
345 "Q1" 37.64706 0.00000 62.74510 5.969363 3.046930 9.814496 
346 "AP10" 37.64706 12.54902 62.74510 6.436310 4.189645 10.098570 
347 "J4" 37.64706 25.09804 62.74510 7.811418 6.144346 11.792860 
348 "AT2" 37.64706 37.64706 62.74510 9.441383 8.864976 14.718010 
349 "AH8" 37.64706 50.19608 62.74510 11.740090 12.783000 18.282120 
350 "AL17" 37.64706 62.74510 62.74510 14.080370 17.195410 21.682560 
351 "AY17" 37.64706 75.29412 62.74510 16.950800 22.906950 26.495050 
352 "P4" 37.64706 87.84314 62.74510 20.501130 30.051140 32.582160 
353 "Q14" 37.64706 100.00000 62.74510 23.624190 37.114700 37.949940 
354 "AM18" 50.19608 0.00000 37.64706 6.471364 3.593786 4.020650 
355 "D14" 50.19608 12.54902 37.64706 7.657926 5.083905 4.953576 
356 "AD5" 50.19608 25.09804 37.64706 8.335449 6.341627 5.351811 
357 "AR12" 50.19608 37.64706 37.64706 10.385670 9.255565 6.861472 
358 "BK9" 50.19608 50.19608 37.64706 12.188580 12.488720 8.226674 
359 "W7" 50.19608 62.74510 37.64706 14.903140 17.370150 10.390380 
360 "AE13" 50.19608 75.29412 37.64706 17.364330 22.795640 12.239450 
