demo/showcase/heavy matte cotton 310gsm.ti3
CTI3

DESCRIPTOR "Invented paper for the showcase — derived from the demo measurement"
ORIGINATOR "scripts/make_showcase_measurements.py"
CREATED "Demo"
DEVICE_CLASS "OUTPUT"
COLOR_REP "iRGB_XYZ"

NUMBER_OF_FIELDS 8
BEGIN_DATA_FORMAT
SAMPLE_ID SAMPLE_LOC RGB_R RGB_G RGB_B XYZ_X XYZ_Y XYZ_Z
END_DATA_FORMAT

NUMBER_OF_SETS 1168
BEGIN_DATA
1 "AI1" 0.00000 0.00000 0.00000 1.654968 1.516477 1.128646 
2 "S2" 0.00000 12.54902 0.00000 1.881236 1.914627 1.397217 
3 "U1" 0.00000 25.09804 0.00000 2.027363 2.267715 1.589154 
4 "K7" 0.00000 37.64706 0.00000 2.227105 2.826105 1.936895 
5 "AM6" 0.00000 50.19608 0.00000 2.357551 3.475091 2.127141 
6 "AI14" 0.00000 62.74510 0.00000 2.505492 4.397426 2.326489 
7 "AS2" 0.00000 75.29412 0.00000 2.720648 5.693420 2.715507 
8 "Q8" 0.00000 87.84314 0.00000 2.938275 7.368997 3.115081 
9 "H2" 0.00000 100.00000 0.00000 3.434731 10.648088 3.866825 
10 "Q6" 0.00000 0.00000 12.54902 1.826667 1.693828 1.516435 
11 "U12" 0.00000 12.54902 12.54902 2.008438 2.070209 1.911112 
12 "AY6" 0.00000 25.09804 12.54902 2.103669 2.354543 2.144288 
13 "AE11" 0.00000 37.64706 12.54902 2.199284 2.826402 2.449334 
14 "S18" 0.00000 50.19608 12.54902 2.364001 3.598899 2.960791 
15 "I16" 0.00000 62.74510 12.54902 2.605977 4.841344 3.661898 
16 "AK15" 0.00000 75.29412 12.54902 2.937726 6.548442 4.437907 
17 "BG4" 0.00000 87.84314 12.54902 3.320931 8.821648 5.341531 
18 "AX14" 0.00000 100.00000 12.54902 4.021661 12.075854 6.657320 
19 "U6" 0.00000 0.00000 25.09804 2.044213 1.885107 2.071953 
20 "AB7" 0.00000 12.54902 25.09804 2.077959 2.120714 2.296184 
21 "P7" 0.00000 25.09804 25.09804 2.197880 2.498697 2.816378 
22 "M12" 0.00000 37.64706 25.09804 2.422577 3.188117 3.624418 
23 "AL10" 0.00000 50.19608 25.09804 2.779948 4.287460 4.770404 
24 "H13" 0.00000 62.74510 25.09804 3.170305 5.851616 6.258704 
25 "AG3" 0.00000 75.29412 25.09804 3.696501 7.993144 8.059815 
26 "BF8" 0.00000 87.84314 25.09804 4.130491 10.535297 9.421384 
27 "AR2" 0.00000 100.00000 25.09804 5.257973 14.388178 11.144257 
28 "Z5" 12.54902 0.00000 0.00000 2.110911 1.887571 1.204780 
29 "BE12" 12.54902 12.54902 0.00000 2.385884 2.361165 1.298455 
30 "AB14" 12.54902 25.09804 0.00000 2.489452 2.743272 1.476628 
31 "BA11" 12.54902 37.64706 0.00000 2.856421 3.623237 1.780605 
32 "A4" 12.54902 50.19608 0.00000 2.982249 4.459726 1.843458 
33 "AJ17" 12.54902 62.74510 0.00000 3.165621 5.412650 2.102254 
34 "AC3" 12.54902 75.29412 0.00000 3.239391 6.655999 2.283789 
35 "L4" 12.54902 87.84314 0.00000 3.257636 8.165288 2.474893 
36 "AB15" 12.54902 100.00000 0.00000 3.713775 11.462381 3.187917 
37 "AC6" 12.54902 0.00000 12.54902 2.028656 1.762044 1.378635 
38 "E12" 12.54902 12.54902 12.54902 2.515845 2.481177 2.042230 
39 "E16" 12.54902 25.09804 12.54902 2.792435 3.101401 2.373593 
40 "X3" 12.54902 37.64706 12.54902 2.973646 3.716660 2.658353 
41 "AH6" 12.54902 50.19608 12.54902 3.222393 4.719329 2.909111 
42 "A10" 12.54902 62.74510 12.54902 3.615130 6.314201 3.493055 
43 "BB11" 12.54902 75.29412 12.54902 3.821754 7.917943 3.903112 
44 "Z13" 12.54902 87.84314 12.54902 4.313090 10.881734 4.845380 
45 "F7" 12.54902 100.00000 12.54902 5.138899 15.118258 6.551372 
46 "AC15" 12.54902 0.00000 25.09804 2.316266 2.009724 1.983289 
47 "BL9" 12.54902 12.54902 25.09804 2.723187 2.694624 2.789670 
48 "P5" 12.54902 25.09804 25.09804 3.027089 3.269217 3.185162 
49 "G1" 12.54902 37.64706 25.09804 3.425484 4.100238 3.993649 
50 "I7" 12.54902 50.19608 25.09804 3.796239 5.390238 4.809729 
51 "C5" 12.54902 62.74510 25.09804 4.568738 7.633398 6.519036 
52 "BH13" 12.54902 75.29412 25.09804 4.878343 9.617620 7.195380 
53 "AU10" 12.54902 87.84314 25.09804 5.959957 13.594781 9.572685 
54 "S4" 12.54902 100.00000 25.09804 6.905460 18.169601 11.193535 
55 "U10" 25.09804 0.00000 0.00000 2.665452 2.291827 1.332982 
56 "BK2" 25.09804 12.54902 0.00000 3.048730 2.886611 1.479190 
57 "L18" 25.09804 25.09804 0.00000 3.850050 4.053078 1.783186 
58 "K10" 25.09804 37.64706 0.00000 4.050697 4.831535 1.916006 
59 "AT10" 25.09804 50.19608 0.00000 4.205976 5.633925 1.985052 
60 "L8" 25.09804 62.74510 0.00000 4.262889 6.726948 1.946778 
61 "AC9" 25.09804 75.29412 0.00000 4.243533 8.082087 1.944562 
62 "BI17" 25.09804 87.84314 0.00000 4.094923 9.754871 1.893199 
63 "BC15" 25.09804 100.00000 0.00000 4.913600 13.987804 2.611652 
64 "BE16" 25.09804 0.00000 12.54902 2.790568 2.283230 1.582600 
65 "AF5" 25.09804 12.54902 12.54902 3.220397 3.052730 2.150350 
66 "M10" 25.09804 25.09804 12.54902 3.808931 3.872246 2.432524 
67 "BF13" 25.09804 37.64706 12.54902 4.051767 4.618208 2.588178 
68 "AX4" 25.09804 50.19608 12.54902 4.371635 5.811736 2.794091 
69 "AI10" 25.09804 62.74510 12.54902 4.744075 7.585602 3.082908 
70 "AH17" 25.09804 75.29412 12.54902 5.350747 10.226120 3.629662 
71 "C4" 25.09804 87.84314 12.54902 6.265884 14.134369 4.595906 
72 "AN7" 25.09804 100.00000 12.54902 6.825904 18.405221 5.757065 
73 "I4" 25.09804 0.00000 25.09804 2.964493 2.357636 2.085788 
74 "BM15" 25.09804 12.54902 25.09804 3.585506 3.222845 2.840231 
75 "M6" 25.09804 25.09804 25.09804 4.014344 3.950879 3.208111 
76 "AT18" 25.09804 37.64706 25.09804 4.477783 4.990878 3.862470 
77 "A12" 25.09804 50.19608 25.09804 5.388168 7.174335 5.140232 
78 "AN15" 25.09804 62.74510 25.09804 6.022323 9.186244 5.836970 
79 "J5" 25.09804 75.29412 25.09804 6.988722 12.463763 7.104183 
80 "L10" 25.09804 87.84314 25.09804 8.150498 16.967228 9.014255 
81 "AP18" 25.09804 100.00000 25.09804 9.008501 21.831587 10.421269 
82 "B15" 37.64706 0.00000 0.00000 4.234909 3.401656 1.620242 
83 "AL18" 37.64706 12.54902 0.00000 4.681170 4.172227 1.748741 
84 "V12" 37.64706 25.09804 0.00000 5.350616 5.218409 2.021957 
85 "V8" 37.64706 37.64706 0.00000 5.637771 6.089645 2.043375 
86 "U8" 37.64706 50.19608 0.00000 5.848740 7.179358 1.978310 
87 "BG2" 37.64706 62.74510 0.00000 5.982401 8.563617 1.869617 
88 "AG4" 37.64706 75.29412 0.00000 6.019869 10.249268 1.834067 
89 "Y10" 37.64706 87.84314 0.00000 6.179567 12.836304 1.660746 
90 "U18" 37.64706 100.00000 0.00000 7.642710 18.265895 2.378958 
91 "AM11" 37.64706 0.00000 12.54902 4.269647 3.337637 2.116496 
92 "BF15" 37.64706 12.54902 12.54902 4.612531 3.954941 2.229002 
93 "T11" 37.64706 25.09804 12.54902 5.202349 4.779703 2.509296 
94 "AV13" 37.64706 37.64706 12.54902 5.747210 5.912300 2.652992 
95 "T13" 37.64706 50.19608 12.54902 6.442342 7.674797 2.791752 
96 "BK3" 37.64706 62.74510 12.54902 6.991302 9.692694 2.865034 
97 "Q9" 37.64706 75.29412 12.54902 7.661465 12.718419 3.274583 
98 "AU1" 37.64706 87.84314 12.54902 8.623810 17.074257 3.975570 
99 "S8" 37.64706 100.00000 12.54902 9.490236 22.189408 4.963427 
100 "A2" 37.64706 0.00000 25.09804 4.367627 3.093665 2.429861 
101 "AF7" 37.64706 12.54902 25.09804 4.895125 4.017002 3.049583 
102 "AP16" 37.64706 25.09804 25.09804 5.722559 5.059333 3.312265 
103 "BK13" 37.64706 37.64706 25.09804 6.502429 6.529977 4.012195 
104 "AE4" 37.64706 50.19608 25.09804 7.548768 8.764590 4.597543 
105 "AH10" 37.64706 62.74510 25.09804 8.910223 12.063333 5.668612 
106 "T14" 37.64706 75.29412 25.09804 10.087365 15.867710 6.639607 
107 "BI16" 37.64706 87.84314 25.09804 11.218021 20.600112 8.153804 
108 "C12" 37.64706 100.00000 25.09804 12.690499 26.617945 10.185773 
109 "AM9" 50.19608 0.00000 0.00000 6.147018 4.757136 2.092905 
110 "AD12" 50.19608 12.54902 0.00000 6.715949 5.556815 2.046451 
111 "V3" 50.19608 25.09804 0.00000 7.383287 6.501524 2.075991 
112 "I10" 50.19608 37.64706 0.00000 8.119384 7.850950 2.043568 
113 "R2" 50.19608 50.19608 0.00000 8.532182 9.231573 2.022273 
114 "S3" 50.19608 62.74510 0.00000 9.128747 11.316296 1.923060 
115 "AY12" 50.19608 75.29412 0.00000 9.344561 13.659086 1.737382 
116 "BK7" 50.19608 87.84314 0.00000 9.697410 16.731965 1.591262 
117 "W14" 50.19608 100.00000 0.00000 12.074610 23.402854 2.239263 
118 "AK6" 50.19608 0.00000 12.54902 5.876868 4.220246 2.272174 
119 "AK8" 50.19608 12.54902 12.54902 6.790926 5.219005 2.355830 
120 "M16" 50.19608 25.09804 12.54902 7.592426 6.298364 2.564928 
121 "G14" 50.19608 37.64706 12.54902 8.718854 8.095159 2.837701 
122 "BF18" 50.19608 50.19608 12.54902 9.487284 9.937516 2.913356 
123 "N9" 50.19608 62.74510 12.54902 10.566483 12.815624 2.993269 
124 "X15" 50.19608 75.29412 12.54902 11.897264 16.743301 3.229038 
125 "AI4" 50.19608 87.84314 12.54902 13.229462 21.833552 3.723783 
126 "R15" 50.19608 100.00000 12.54902 14.524042 27.746753 4.440698 
127 "AP17" 50.19608 0.00000 25.09804 6.138885 4.083846 2.764719 
128 "BE11" 50.19608 12.54902 25.09804 7.067871 5.242139 3.159469 
129 "BH15" 50.19608 25.09804 25.09804 8.199921 6.601304 3.588283 
130 "AB18" 50.19608 37.64706 25.09804 9.671549 8.786698 4.272134 
131 "AX1" 50.19608 50.19608 25.09804 11.267482 11.622839 4.968447 
132 "AW14" 50.19608 62.74510 25.09804 13.147421 15.478531 5.714902 
133 "BE8" 50.19608 75.29412 25.09804 14.568155 19.871321 6.204686 
134 "Z9" 50.19608 87.84314 25.09804 16.321782 25.744629 7.470499 
135 "AD13" 50.19608 100.00000 25.09804 17.459221 31.537764 8.330169 
136 "AE17" 62.74510 0.00000 0.00000 8.760083 6.119473 2.221591 
137 "P11" 62.74510 12.54902 0.00000 9.530137 7.069660 2.128949 
138 "BJ13" 62.74510 25.09804 0.00000 10.162448 7.946814 2.014057 
139 "BC13" 62.74510 37.64706 0.00000 11.260641 9.607491 1.982777 
140 "E9" 62.74510 50.19608 0.00000 12.924178 12.257208 1.984520 
141 "AB8" 62.74510 62.74510 0.00000 13.690413 14.729098 1.960058 
142 "H15" 62.74510 75.29412 0.00000 15.194722 18.573237 1.811034 
143 "V2" 62.74510 87.84314 0.00000 16.446858 23.065967 1.698955 
144 "V14" 62.74510 100.00000 0.00000 19.386234 30.126880 2.263497 
145 "AV11" 62.74510 0.00000 12.54902 8.636932 5.649279 2.477058 
146 "L16" 62.74510 12.54902 12.54902 10.150538 7.042071 2.566619 
147 "J14" 62.74510 25.09804 12.54902 11.541654 8.637485 2.723494 
148 "BH10" 62.74510 37.64706 12.54902 12.521125 10.439027 2.731906 
149 "AO1" 62.74510 50.19608 12.54902 14.478496 13.510341 3.015530 
150 "N8" 62.74510 62.74510 12.54902 16.085229 16.977954 3.183532 
151 "A13" 62.74510 75.29412 12.54902 18.829994 22.547463 3.615152 
152 "AV9" 62.74510 87.84314 12.54902 19.446201 26.957407 3.556835 
153 "AY11" 62.74510 100.00000 12.54902 21.937578 34.384563 4.057260 
154 "AQ5" 62.74510 0.00000 25.09804 9.494458 5.836353 3.275596 
155 "AL7" 62.74510 12.54902 25.09804 10.921865 7.368914 3.543834 
156 "X14" 62.74510 25.09804 25.09804 12.429663 9.175225 3.947773 
157 "T1" 62.74510 37.64706 25.09804 14.511613 12.052739 4.776487 
158 "BK5" 62.74510 50.19608 25.09804 16.607587 15.527975 5.111338 
159 "AP9" 62.74510 62.74510 25.09804 18.968348 19.859749 5.907059 
160 "Y1" 62.74510 75.29412 25.09804 21.512661 25.471004 6.615211 
161 "M9" 62.74510 87.84314 25.09804 23.670456 31.932611 7.286021 
162 "K14" 62.74510 100.00000 25.09804 25.486168 38.735363 7.448511 
163 "AA10" 75.29412 0.00000 0.00000 13.090464 8.186182 2.339366 
164 "U4" 75.29412 12.54902 0.00000 14.188234 9.293653 2.185331 
165 "AY2" 75.29412 25.09804 0.00000 14.570118 10.134992 2.022384 
166 "AP12" 75.29412 37.64706 0.00000 16.383660 12.265922 1.945030 
167 "BL5" 75.29412 50.19608 0.00000 18.080877 14.814252 1.916045 
168 "I2" 75.29412 62.74510 0.00000 21.143012 19.503311 1.960796 
169 "AN9" 75.29412 75.29412 0.00000 23.435494 24.359604 1.927496 
170 "AU13" 75.29412 87.84314 0.00000 25.971331 30.270710 1.883569 
171 "H9" 75.29412 100.00000 0.00000 30.046879 38.498389 2.326184 
172 "BK4" 75.29412 0.00000 12.54902 13.557193 8.018114 2.782370 
173 "AF13" 75.29412 12.54902 12.54902 14.798341 9.348986 2.652973 
174 "AI3" 75.29412 25.09804 12.54902 17.301815 11.737153 2.820196 
175 "BF2" 75.29412 37.64706 12.54902 18.838207 14.046338 2.863147 
176 "U17" 75.29412 50.19608 12.54902 21.377438 17.875757 3.112076 
177 "AL15" 75.29412 62.74510 12.54902 23.793643 22.312660 3.188564 
178 "AK1" 75.29412 75.29412 12.54902 26.806549 28.138404 3.491802 
179 "BF9" 75.29412 87.84314 12.54902 29.473211 34.631097 3.530977 
180 "E15" 75.29412 100.00000 12.54902 33.333430 43.624416 3.947264 
181 "R13" 0.00000 0.00000 0.00000 1.645377 1.508880 1.086904 
182 "AZ12" 100.00000 100.00000 100.00000 77.342336 80.246881 65.054349 
183 "AQ18" 75.29412 0.00000 25.09804 14.687026 8.396079 3.716684 
184 "BD11" 75.29412 12.54902 25.09804 16.937198 10.502801 4.142087 
185 "BG8" 75.29412 25.09804 25.09804 18.759097 12.743883 4.333364 
186 "F15" 75.29412 37.64706 25.09804 21.972129 16.761067 5.294991 
187 "AZ4" 75.29412 50.19608 25.09804 24.039406 20.416596 5.576612 
188 "I5" 75.29412 62.74510 25.09804 27.691240 26.449676 6.548143 
189 "AM5" 75.29412 75.29412 25.09804 30.146895 32.002547 6.736837 
190 "AF14" 75.29412 87.84314 25.09804 32.867572 38.877669 6.752803 
191 "K2" 75.29412 100.00000 25.09804 35.698671 46.941986 6.828949 
192 "AI11" 87.84314 0.00000 0.00000 20.194890 11.435855 2.442731 
193 "AL13" 87.84314 12.54902 0.00000 21.302821 12.351490 2.253860 
194 "AW6" 87.84314 25.09804 0.00000 22.645536 13.899482 2.041077 
195 "AR11" 87.84314 37.64706 0.00000 24.881392 16.262303 1.853275 
196 "BC3" 87.84314 50.19608 0.00000 28.099360 19.875522 1.798462 
197 "AT6" 87.84314 62.74510 0.00000 31.814155 24.976837 1.773346 
198 "O9" 87.84314 75.29412 0.00000 36.288461 32.380295 1.885629 
199 "AZ13" 87.84314 87.84314 0.00000 39.736270 39.612994 1.994371 
200 "AM15" 87.84314 100.00000 0.00000 45.622868 50.118058 2.345857 
201 "L14" 87.84314 0.00000 12.54902 21.427005 11.787715 3.153101 
202 "AL2" 87.84314 12.54902 12.54902 23.725775 13.711895 3.071660 
203 "AG13" 87.84314 25.09804 12.54902 26.232623 16.207323 3.175191 
204 "M5" 87.84314 37.64706 12.54902 29.057003 19.628603 3.137359 
205 "BL7" 87.84314 50.19608 12.54902 31.706497 23.580626 3.245091 
206 "Y15" 87.84314 62.74510 12.54902 35.110876 29.416466 3.343025 
207 "BG16" 87.84314 75.29412 12.54902 38.742134 36.015379 3.492524 
208 "AK3" 87.84314 87.84314 12.54902 43.504627 45.000162 3.562277 
209 "AR18" 87.84314 100.00000 12.54902 47.164797 53.697550 3.612155 
210 "AF4" 87.84314 0.00000 25.09804 22.356900 12.050013 4.343455 
211 "R18" 87.84314 12.54902 25.09804 26.232914 15.249068 4.997934 
212 "AD15" 87.84314 25.09804 25.09804 28.875160 18.312227 5.182302 
213 "BL17" 87.84314 37.64706 25.09804 31.743223 22.255565 5.722040 
214 "O18" 87.84314 50.19608 25.09804 35.352964 27.749113 6.325193 
215 "S10" 87.84314 62.74510 25.09804 38.380102 33.381198 6.570150 
216 "O3" 87.84314 75.29412 25.09804 43.049787 41.464813 7.188383 
217 "Z4" 87.84314 87.84314 25.09804 46.158208 48.982547 6.713126 
218 "BF7" 87.84314 100.00000 25.09804 48.704257 56.545449 6.204035 
219 "BC2" 100.00000 0.00000 0.00000 32.167680 16.886990 2.870681 
220 "D16" 100.00000 12.54902 0.00000 32.332104 17.064678 2.567923 
221 "AX8" 100.00000 25.09804 0.00000 32.269858 17.409273 2.145592 
222 "AT1" 100.00000 37.64706 0.00000 36.738260 21.022341 1.739296 
223 "AB3" 100.00000 50.19608 0.00000 41.667207 25.940459 1.667867 
224 "D9" 100.00000 62.74510 0.00000 47.129049 33.097196 1.711220 
225 "Q13" 100.00000 75.29412 0.00000 52.383085 40.866897 1.830230 
226 "AD18" 100.00000 87.84314 0.00000 58.185648 50.380355 1.982342 
227 "AQ2" 100.00000 100.00000 0.00000 64.445458 61.832601 2.152495 
228 "AD17" 100.00000 0.00000 12.54902 32.421376 16.865642 3.797994 
229 "AP14" 100.00000 12.54902 12.54902 34.892946 18.812561 3.536580 
230 "AH16" 100.00000 25.09804 12.54902 38.546924 22.017435 3.425001 
231 "AO8" 100.00000 37.64706 12.54902 41.511618 25.582911 3.407793 
232 "W3" 100.00000 50.19608 12.54902 45.627145 30.910013 3.571669 
233 "AV4" 100.00000 62.74510 12.54902 49.534969 37.308114 3.612170 
234 "AE1" 100.00000 75.29412 12.54902 53.976563 44.968879 3.465879 
235 "BM1" 100.00000 87.84314 12.54902 59.013784 54.364094 3.394663 
236 "BH12" 100.00000 100.00000 12.54902 64.844545 65.884086 3.176938 
237 "I8" 100.00000 0.00000 25.09804 32.613465 16.902265 5.179813 
238 "Q2" 100.00000 12.54902 25.09804 37.633648 20.764856 5.761609 
239 "AQ9" 100.00000 25.09804 25.09804 40.945512 24.538402 6.108691 
240 "F1" 100.00000 37.64706 25.09804 45.380329 30.060977 6.761363 
241 "J8" 100.00000 50.19608 25.09804 48.505397 35.578204 6.993336 
242 "BK11" 100.00000 62.74510 25.09804 51.793329 41.469635 6.985614 
243 "AC5" 100.00000 75.29412 25.09804 56.463408 49.864681 6.759644 
244 "BJ5" 100.00000 87.84314 25.09804 60.918870 58.871178 6.058885 
245 "G2" 100.00000 100.00000 25.09804 66.343260 69.487049 5.385039 
246 "B1" 0.00000 0.00000 37.64706 2.233681 2.009934 2.851223 
247 "A18" 0.00000 12.54902 37.64706 2.303118 2.295021 3.488829 
248 "Y7" 0.00000 25.09804 37.64706 2.461252 2.776585 4.225351 
249 "BA9" 0.00000 37.64706 37.64706 2.738502 3.567183 5.260725 
250 "G13" 0.00000 50.19608 37.64706 3.315262 5.060259 7.407489 
251 "AQ1" 0.00000 62.74510 37.64706 3.931654 6.995251 9.705140 
252 "BI4" 0.00000 75.29412 37.64706 4.623897 9.522773 12.232170 
253 "AS10" 0.00000 87.84314 37.64706 5.231280 12.265047 14.414628 
254 "AM7" 0.00000 100.00000 37.64706 6.830497 16.292083 17.162163 
255 "BI10" 0.00000 0.00000 50.19608 2.478474 2.185898 3.833587 
256 "T4" 0.00000 12.54902 50.19608 2.644520 2.545406 5.031334 
257 "BG3" 0.00000 25.09804 50.19608 2.921553 3.165024 6.452833 
258 "W11" 0.00000 37.64706 50.19608 3.419428 4.289829 8.557716 
259 "BJ17" 0.00000 50.19608 50.19608 4.019273 5.823730 10.919971 
260 "AU3" 0.00000 62.74510 50.19608 4.999995 8.324315 14.596263 
261 "AQ11" 0.00000 75.29412 50.19608 5.829730 11.062853 17.863264 
262 "L17" 0.00000 87.84314 50.19608 6.787396 14.038442 21.256596 
263 "AB13" 0.00000 100.00000 50.19608 8.750927 18.276676 24.449390 
264 "F17" 0.00000 0.00000 62.74510 2.937693 2.384340 6.151727 
265 "J17" 0.00000 12.54902 62.74510 3.182111 2.885855 7.781488 
266 "J1" 0.00000 25.09804 62.74510 3.654804 3.760534 10.007763 
267 "BM11" 0.00000 37.64706 62.74510 4.262672 5.027335 12.759514 
268 "AF15" 0.00000 50.19608 62.74510 5.118127 6.981112 16.368201 
269 "AR8" 0.00000 62.74510 62.74510 6.172974 9.602689 20.327453 
270 "P8" 0.00000 75.29412 62.74510 7.008217 12.207078 23.855505 
271 "BD13" 0.00000 87.84314 62.74510 8.199091 15.298108 27.446921 
272 "AN13" 0.00000 100.00000 62.74510 10.567881 19.858743 31.344854 
273 "BM14" 12.54902 0.00000 37.64706 2.651154 2.219377 3.080369 
274 "Y13" 12.54902 12.54902 37.64706 2.954656 2.801216 3.916087 
275 "AY7" 12.54902 25.09804 37.64706 3.301613 3.445432 4.558998 
276 "AV16" 12.54902 37.64706 37.64706 3.804308 4.424191 5.833759 
277 "AY10" 12.54902 50.19608 37.64706 4.403311 5.907403 7.208062 
278 "BK15" 12.54902 62.74510 37.64706 5.208217 8.181547 9.255282 
279 "BC8" 12.54902 75.29412 37.64706 6.261830 11.410146 11.830214 
280 "J3" 12.54902 87.84314 37.64706 7.741960 15.930465 15.222061 
281 "BA10" 12.54902 100.00000 37.64706 9.106295 20.788798 17.988130 
282 "T17" 12.54902 0.00000 50.19608 3.127306 2.455500 4.847281 
283 "AN14" 12.54902 12.54902 50.19608 3.398730 3.017515 5.695333 
284 "AE6" 12.54902 25.09804 50.19608 3.766183 3.741930 6.588325 
285 "H4" 12.54902 37.64706 50.19608 4.578452 5.227407 8.703066 
286 "AB16" 12.54902 50.19608 50.19608 5.327306 7.010825 10.703764 
287 "AR9" 12.54902 62.74510 50.19608 6.508646 9.632380 13.751320 
288 "AE2" 12.54902 75.29412 50.19608 7.703836 12.886369 16.996616 
289 "BJ11" 12.54902 87.84314 50.19608 9.556817 17.779313 21.436743 
290 "AM17" 12.54902 100.00000 50.19608 11.627359 23.258357 26.272860 
291 "AX6" 12.54902 0.00000 62.74510 3.673994 2.680986 7.353875 
292 "BB7" 12.54902 12.54902 62.74510 4.028540 3.355270 8.403861 
293 "O15" 12.54902 25.09804 62.74510 4.664010 4.401609 10.199066 
294 "G3" 12.54902 37.64706 62.74510 5.626414 6.168513 12.960797 
295 "AW12" 12.54902 50.19608 62.74510 6.525535 8.141079 15.588125 
296 "BL2" 12.54902 62.74510 62.74510 7.710682 10.936085 19.084761 
297 "AQ13" 12.54902 75.29412 62.74510 9.512079 14.794719 23.657477 
298 "P14" 12.54902 87.84314 62.74510 11.562200 19.544304 29.128262 
299 "BL18" 12.54902 100.00000 62.74510 14.055593 25.200820 34.472729 
300 "BH17" 25.09804 0.00000 37.64706 3.384811 2.513517 3.284128 
301 "AK18" 25.09804 12.54902 37.64706 3.937406 3.352565 4.252149 
302 "AU18" 25.09804 25.09804 37.64706 4.352425 4.093447 4.708856 
303 "AS9" 25.09804 37.64706 37.64706 5.156902 5.565902 5.864071 
304 "AJ9" 25.09804 50.19608 37.64706 6.183782 7.719064 7.472444 
305 "BD17" 25.09804 62.74510 37.64706 7.350030 10.537290 9.341718 
306 "AT11" 25.09804 75.29412 37.64706 8.672117 14.383008 11.661984 
307 "AS4" 25.09804 87.84314 37.64706 10.235534 19.388123 14.684698 
308 "U14" 25.09804 100.00000 37.64706 11.865216 25.099995 18.354675 
309 "X13" 25.09804 0.00000 50.19608 3.978139 2.778193 5.264460 
310 "AT13" 25.09804 12.54902 50.19608 4.462089 3.601486 6.218870 
311 "AR13" 25.09804 25.09804 50.19608 4.953299 4.495018 6.793176 
312 "AV15" 25.09804 37.64706 50.19608 6.040358 6.324185 8.680369 
313 "U5" 25.09804 50.19608 50.19608 7.273428 8.765291 10.917490 
314 "BM12" 25.09804 62.74510 50.19608 8.722132 11.902377 13.513097 
315 "AG7" 25.09804 75.29412 50.19608 10.806403 16.370272 17.398814 
316 "BA12" 25.09804 87.84314 50.19608 12.694246 21.756810 21.500988 
317 "I9" 25.09804 100.00000 50.19608 15.143650 28.165646 26.853626 
318 "AA11" 25.09804 0.00000 62.74510 4.735755 3.085014 8.219629 
319 "E5" 25.09804 12.54902 62.74510 5.494656 4.129136 9.362489 
320 "AL4" 25.09804 25.09804 62.74510 5.968818 5.182353 10.384720 
321 "AJ15" 25.09804 37.64706 62.74510 7.289861 7.439850 12.929865 
322 "AI13" 25.09804 50.19608 62.74510 8.862413 10.304257 16.191822 
323 "AD4" 25.09804 62.74510 62.74510 10.349802 13.532158 19.043568 
324 "BA18" 25.09804 75.29412 62.74510 12.578774 18.211779 23.555356 
325 "O12" 25.09804 87.84314 62.74510 15.311979 24.119284 29.426131 
326 "BI14" 25.09804 100.00000 62.74510 17.512248 29.865767 34.672695 
327 "Q5" 37.64706 0.00000 37.64706 4.692229 3.173284 3.561415 
328 "AK14" 37.64706 12.54902 37.64706 5.497406 4.236569 4.471449 
329 "BH7" 37.64706 25.09804 37.64706 6.186539 5.261654 4.854552 
330 "AW2" 37.64706 37.64706 37.64706 7.357235 7.282912 6.095371 
331 "O2" 37.64706 50.19608 37.64706 8.734434 9.924015 7.527979 
332 "O11" 37.64706 62.74510 37.64706 10.482466 13.650579 9.345133 
333 "D6" 37.64706 75.29412 37.64706 12.600626 18.703183 11.576290 
334 "AP6" 37.64706 87.84314 37.64706 14.020666 23.929037 13.433330 
335 "BK10" 37.64706 100.00000 37.64706 15.465695 29.525356 16.798070 
336 "AL3" 37.64706 0.00000 50.19608 5.567497 3.517115 5.770575 
337 "AC2" 37.64706 12.54902 50.19608 6.172473 4.504425 6.481434 
338 "O16" 37.64706 25.09804 50.19608 7.147854 5.928911 7.282695 
339 "AG10" 37.64706 37.64706 50.19608 8.578531 8.199206 9.253923 
340 "L15" 37.64706 50.19608 50.19608 10.476809 11.541153 11.637356 
341 "R1" 37.64706 62.74510 50.19608 12.641518 15.702693 14.306848 
342 "AV8" 37.64706 75.29412 50.19608 14.456119 20.347299 17.032760 
343 "BL3" 37.64706 87.84314 50.19608 16.871888 26.597133 20.881836 
344 "U7" 37.64706 100.00000 50.19608 18.974518 32.876249 25.327595 
345 "Q1" 37.64706 0.00000 62.74510 6.811201 3.964114 9.236756 
346 "AP10" 37.64706 12.54902 62.74510 7.250131 5.038266 9.486742 
347 "J4" 37.64706 25.09804 62.74510 8.542733 6.875685 10.977717 
348 "AT2" 37.64706 37.64706 62.74510 10.074900 9.433077 13.551849 
349 "AH8" 37.64706 50.19608 62.74510 12.235685 13.116020 16.688266 
350 "AL17" 37.64706 62.74510 62.74510 14.435548 17.263685 19.680653 
351 "AY17" 37.64706 75.29412 62.74510 17.058556 22.632533 24.014813 
352 "P4" 37.64706 87.84314 62.74510 20.181207 29.348072 29.496589 
353 "Q14" 37.64706 100.00000 62.74510 22.830780 35.987818 34.261630 
354 "AM18" 50.19608 0.00000 37.64706 7.283082 4.478159 4.138172 
355 "D14" 50.19608 12.54902 37.64706 8.398450 5.878871 4.959147 
356 "AD5" 50.19608 25.09804 37.64706 9.035322 7.061129 5.309594 
357 "AR12" 50.19608 37.64706 37.64706 10.962530 9.800231 6.638095 
358 "BK9" 50.19608 50.19608 37.64706 12.657265 12.839397 7.839473 
359 "W7" 50.19608 62.74510 37.64706 15.059501 17.427941 9.355082 
360 "AE13" 50.19608 75.29412 37.64706 17.014778 22.527902 10.591306 
