demo/showcase/soft-white rag 300gsm.ti3
CTI3

DESCRIPTOR "Invented paper for the showcase — derived from the demo measurement"
ORIGINATOR "scripts/make_showcase_measurements.py"
CREATED "Demo"
DEVICE_CLASS "OUTPUT"
COLOR_REP "iRGB_XYZ"

NUMBER_OF_FIELDS 8
BEGIN_DATA_FORMAT
SAMPLE_ID SAMPLE_LOC RGB_R RGB_G RGB_B XYZ_X XYZ_Y XYZ_Z
END_DATA_FORMAT

NUMBER_OF_SETS 1168
BEGIN_DATA
1 "AI1" 0.00000 0.00000 0.00000 0.478608 0.443061 0.578379 
2 "S2" 0.00000 12.54902 0.00000 0.735263 0.866624 0.886494 
3 "U1" 0.00000 25.09804 0.00000 0.925489 1.242250 1.146473 
4 "K7" 0.00000 37.64706 0.00000 1.202755 1.836282 1.564027 
5 "AM6" 0.00000 50.19608 0.00000 1.427719 2.526693 1.848484 
6 "AI14" 0.00000 62.74510 0.00000 1.705123 3.507900 2.179362 
7 "AS2" 0.00000 75.29412 0.00000 2.087063 4.886617 2.739108 
8 "Q8" 0.00000 87.84314 0.00000 2.511038 6.669146 3.356179 
9 "H2" 0.00000 100.00000 0.00000 3.391125 10.157540 4.521667 
10 "Q6" 0.00000 0.00000 12.54902 0.661196 0.631732 0.984182 
11 "U12" 0.00000 12.54902 12.54902 0.872330 1.032137 1.418791 
12 "AY6" 0.00000 25.09804 12.54902 0.991172 1.334620 1.681827 
13 "AE11" 0.00000 37.64706 12.54902 1.151693 1.836598 2.032555 
14 "S18" 0.00000 50.19608 12.54902 1.416276 2.658403 2.634108 
15 "I16" 0.00000 62.74510 12.54902 1.813429 3.980153 3.489861 
16 "AK15" 0.00000 75.29412 12.54902 2.352549 5.796215 4.489073 
17 "BG4" 0.00000 87.84314 12.54902 3.002036 8.214519 5.692185 
18 "AX14" 0.00000 100.00000 12.54902 4.074521 11.676440 7.428752 
19 "U6" 0.00000 0.00000 25.09804 0.889081 0.835220 1.553669 
20 "AB7" 0.00000 12.54902 25.09804 0.944376 1.085866 1.806230 
21 "P7" 0.00000 25.09804 25.09804 1.093880 1.487975 2.368697 
22 "M12" 0.00000 37.64706 25.09804 1.372565 2.221401 3.248148 
23 "AL10" 0.00000 50.19608 25.09804 1.837066 3.390915 4.485807 
24 "H13" 0.00000 62.74510 25.09804 2.394057 5.054911 6.114042 
25 "AG3" 0.00000 75.29412 25.09804 3.150196 7.333132 8.129755 
26 "BF8" 0.00000 87.84314 25.09804 3.879898 10.037550 9.794196 
27 "AR2" 0.00000 100.00000 25.09804 5.458670 14.136360 12.012863 
28 "Z5" 12.54902 0.00000 0.00000 0.952968 0.837841 0.687644 
29 "BE12" 12.54902 12.54902 0.00000 1.264606 1.341665 0.820561 
30 "AB14" 12.54902 25.09804 0.00000 1.407720 1.748162 1.072404 
31 "BA11" 12.54902 37.64706 0.00000 1.897941 2.684295 1.534500 
32 "A4" 12.54902 50.19608 0.00000 2.160578 3.574177 1.721009 
33 "AJ17" 12.54902 62.74510 0.00000 2.483571 4.587925 2.107401 
34 "AC3" 12.54902 75.29412 0.00000 2.735097 5.910637 2.444246 
35 "L4" 12.54902 87.84314 0.00000 2.949812 7.516264 2.813427 
36 "AB15" 12.54902 100.00000 0.00000 3.795428 11.023810 3.923300 
37 "AC6" 12.54902 0.00000 12.54902 0.862061 0.704302 0.853447 
38 "E12" 12.54902 12.54902 12.54902 1.401439 1.469337 1.594628 
39 "E16" 12.54902 25.09804 12.54902 1.749058 2.129150 2.012188 
40 "X3" 12.54902 37.64706 12.54902 2.019474 2.783681 2.380852 
41 "AH6" 12.54902 50.19608 12.54902 2.414623 3.850350 2.782483 
42 "A10" 12.54902 62.74510 12.54902 3.020424 5.547022 3.580313 
43 "BB11" 12.54902 75.29412 12.54902 3.441349 7.253131 4.206741 
44 "Z13" 12.54902 87.84314 12.54902 4.295168 10.406100 5.530943 
45 "F7" 12.54902 100.00000 12.54902 5.605534 14.913040 7.768585 
46 "AC15" 12.54902 0.00000 25.09804 1.161557 0.967792 1.483050 
47 "BL9" 12.54902 12.54902 25.09804 1.621863 1.696409 2.366472 
48 "P5" 12.54902 25.09804 25.09804 1.969383 2.307678 2.826378 
49 "G1" 12.54902 37.64706 25.09804 2.436307 3.191743 3.718040 
50 "I7" 12.54902 50.19608 25.09804 2.974955 4.564083 4.656526 
51 "C5" 12.54902 62.74510 25.09804 4.004097 6.950423 6.610662 
52 "BH13" 12.54902 75.29412 25.09804 4.586572 9.061298 7.558462 
53 "AU10" 12.54902 87.84314 25.09804 6.124060 13.292320 10.416088 
54 "S4" 12.54902 100.00000 25.09804 7.623932 18.159150 12.653634 
55 "U10" 25.09804 0.00000 0.00000 1.524632 1.267901 0.851840 
56 "BK2" 25.09804 12.54902 0.00000 1.953712 1.900650 1.046026 
57 "L18" 25.09804 25.09804 0.00000 2.839447 3.141572 1.457748 
58 "K10" 25.09804 37.64706 0.00000 3.144385 3.969718 1.754563 
59 "AT10" 25.09804 50.19608 0.00000 3.433848 4.823324 1.965973 
60 "L8" 25.09804 62.74510 0.00000 3.681908 5.986115 2.076690 
61 "AC9" 25.09804 75.29412 0.00000 3.885252 7.427752 2.229753 
62 "BI17" 25.09804 87.84314 0.00000 3.983692 9.207310 2.335040 
63 "BC15" 25.09804 100.00000 0.00000 5.331382 13.710430 3.544952 
64 "BE16" 25.09804 0.00000 12.54902 1.641992 1.258755 1.109027 
65 "AF5" 25.09804 12.54902 12.54902 2.135150 2.077372 1.757208 
66 "M10" 25.09804 25.09804 12.54902 2.781898 2.949198 2.114257 
67 "BF13" 25.09804 37.64706 12.54902 3.118059 3.742774 2.427748 
68 "AX4" 25.09804 50.19608 12.54902 3.630619 5.012485 2.837843 
69 "AI10" 25.09804 62.74510 12.54902 4.274443 6.899577 3.374459 
70 "AH17" 25.09804 75.29412 12.54902 5.246316 9.708638 4.262198 
71 "C4" 25.09804 87.84314 12.54902 6.667363 13.866350 5.720925 
72 "AN7" 25.09804 100.00000 12.54902 7.756342 18.409810 7.410139 
73 "I4" 25.09804 0.00000 25.09804 1.814895 1.337911 1.625605 
74 "BM15" 25.09804 12.54902 25.09804 2.501929 2.258346 2.474685 
75 "M6" 25.09804 25.09804 25.09804 2.987314 3.032850 2.917677 
76 "AT18" 25.09804 37.64706 25.09804 3.570204 4.139232 3.709013 
77 "A12" 25.09804 50.19608 25.09804 4.757389 6.462059 5.258468 
78 "AN15" 25.09804 62.74510 25.09804 5.667428 8.602387 6.241193 
79 "J5" 25.09804 75.29412 25.09804 7.060824 12.089110 7.947789 
80 "L10" 25.09804 87.84314 25.09804 8.784627 16.880030 10.436867 
81 "AP18" 25.09804 100.00000 25.09804 10.254245 22.054880 12.487740 
82 "B15" 37.64706 0.00000 0.00000 3.138244 2.448570 1.227948 
83 "AL18" 37.64706 12.54902 0.00000 3.648316 3.268327 1.409957 
84 "V12" 37.64706 25.09804 0.00000 4.397143 4.381286 1.761990 
85 "V8" 37.64706 37.64706 0.00000 4.762322 5.308133 1.875598 
86 "U8" 37.64706 50.19608 0.00000 5.122104 6.467402 1.992693 
87 "BG2" 37.64706 62.74510 0.00000 5.489766 7.940018 2.078370 
88 "AG4" 37.64706 75.29412 0.00000 5.821128 9.733264 2.241603 
89 "Y10" 37.64706 87.84314 0.00000 6.371515 12.485430 2.257997 
90 "U18" 37.64706 100.00000 0.00000 8.543646 18.261590 3.587145 
91 "AM11" 37.64706 0.00000 12.54902 3.163381 2.380465 1.745315 
92 "BF15" 37.64706 12.54902 12.54902 3.559256 3.037171 1.907826 
93 "T11" 37.64706 25.09804 12.54902 4.210186 3.914578 2.258650 
94 "AV13" 37.64706 37.64706 12.54902 4.846604 5.119468 2.489964 
95 "T13" 37.64706 50.19608 12.54902 5.740780 6.994465 2.921038 
96 "BK3" 37.64706 62.74510 12.54902 6.596299 9.141164 3.303687 
97 "Q9" 37.64706 75.29412 12.54902 7.735225 12.360020 4.127201 
98 "AU1" 37.64706 87.84314 12.54902 9.318839 16.993890 5.367403 
99 "S8" 37.64706 100.00000 12.54902 10.880853 22.435540 6.980280 
100 "A2" 37.64706 0.00000 25.09804 3.224541 2.120920 2.046450 
101 "AF7" 37.64706 12.54902 25.09804 3.834292 3.103194 2.761895 
102 "AP16" 37.64706 25.09804 25.09804 4.736263 4.212056 3.118204 
103 "BK13" 37.64706 37.64706 25.09804 5.634106 5.776571 3.956844 
104 "AE4" 37.64706 50.19608 25.09804 6.928531 8.153819 4.936326 
105 "AH10" 37.64706 62.74510 25.09804 8.757026 11.663120 6.525082 
106 "T14" 37.64706 75.29412 25.09804 10.479127 15.710330 8.021153 
107 "BI16" 37.64706 87.84314 25.09804 12.270517 20.744800 10.155202 
108 "C12" 37.64706 100.00000 25.09804 14.526743 27.146750 12.957866 
109 "AM9" 50.19608 0.00000 0.00000 5.104210 3.890570 1.813735 
110 "AD12" 50.19608 12.54902 0.00000 5.735394 4.741293 1.805917 
111 "V3" 50.19608 25.09804 0.00000 6.474199 5.746302 1.883234 
112 "I10" 50.19608 37.64706 0.00000 7.318811 7.181862 1.903414 
113 "R2" 50.19608 50.19608 0.00000 7.856287 8.650610 1.993673 
114 "S3" 50.19608 62.74510 0.00000 8.698800 10.868400 2.125293 
115 "AY12" 50.19608 75.29412 0.00000 9.287533 13.360730 2.184446 
116 "BK7" 50.19608 87.84314 0.00000 10.120412 16.629750 2.274217 
117 "W14" 50.19608 100.00000 0.00000 13.356918 23.726440 3.614508 
118 "AK6" 50.19608 0.00000 12.54902 4.783828 3.319411 1.971338 
119 "AK8" 50.19608 12.54902 12.54902 5.766883 4.381920 2.122636 
120 "M16" 50.19608 25.09804 12.54902 6.650518 5.530175 2.408658 
121 "G14" 50.19608 37.64706 12.54902 7.917915 7.441659 2.798786 
122 "BF18" 50.19608 50.19608 12.54902 8.840572 9.401613 3.005324 
123 "N9" 50.19608 62.74510 12.54902 10.235666 12.463430 3.463307 
124 "X15" 50.19608 75.29412 12.54902 12.099110 16.641810 4.207226 
125 "AI4" 50.19608 87.84314 12.54902 14.185671 22.056970 5.340291 
126 "R15" 50.19608 100.00000 12.54902 16.349164 28.347610 6.768791 
127 "AP17" 50.19608 0.00000 25.09804 5.010951 3.174304 2.474792 
128 "BE11" 50.19608 12.54902 25.09804 6.030551 4.406531 2.973080 
129 "BH15" 50.19608 25.09804 25.09804 7.260723 5.852451 3.517876 
130 "AB18" 50.19608 37.64706 25.09804 8.900732 8.177338 4.383142 
131 "AX1" 50.19608 50.19608 25.09804 10.717739 11.194510 5.317565 
132 "AW14" 50.19608 62.74510 25.09804 12.998066 15.296310 6.676236 
133 "BE8" 50.19608 75.29412 25.09804 15.064662 19.969490 7.869194 
134 "Z9" 50.19608 87.84314 25.09804 17.696405 26.217690 9.985084 
135 "AD13" 50.19608 100.00000 25.09804 19.704621 32.380600 11.585525 
136 "AE17" 62.74510 0.00000 0.00000 7.729873 5.339865 2.025728 
137 "P11" 62.74510 12.54902 0.00000 8.572043 6.350702 1.967368 
138 "BJ13" 62.74510 25.09804 0.00000 9.273461 7.283845 1.873567 
139 "BC13" 62.74510 37.64706 0.00000 10.503252 9.050522 1.896936 
140 "E9" 62.74510 50.19608 0.00000 12.372256 11.869370 1.980997 
141 "AB8" 62.74510 62.74510 0.00000 13.358798 14.499040 2.096552 
142 "H15" 62.74510 75.29412 0.00000 15.253918 18.588550 2.196702 
143 "V2" 62.74510 87.84314 0.00000 17.076877 23.368050 2.401585 
144 "V14" 62.74510 100.00000 0.00000 20.870930 30.879660 3.654493 
145 "AV11" 62.74510 0.00000 12.54902 7.553037 4.839658 2.277646 
146 "L16" 62.74510 12.54902 12.54902 9.151481 6.321352 2.449464 
147 "J14" 62.74510 25.09804 12.54902 10.657310 8.018601 2.698759 
148 "BH10" 62.74510 37.64706 12.54902 11.793133 9.935135 2.785856 
149 "AO1" 62.74510 50.19608 12.54902 13.989146 13.202490 3.227426 
150 "N8" 62.74510 62.74510 12.54902 15.880682 16.891440 3.615392 
151 "A13" 62.74510 75.29412 12.54902 19.155846 22.816450 4.606425 
152 "AV9" 62.74510 87.84314 12.54902 20.435822 27.507880 5.088003 
153 "AY11" 62.74510 100.00000 12.54902 23.927203 35.409110 6.381001 
154 "AQ5" 62.74510 0.00000 25.09804 8.377615 5.038673 3.136831 
155 "AL7" 62.74510 12.54902 25.09804 9.916227 6.669057 3.520475 
156 "X14" 62.74510 25.09804 25.09804 11.559143 8.590665 4.060015 
157 "T1" 62.74510 37.64706 25.09804 13.863439 11.651850 5.114369 
158 "BK5" 62.74510 50.19608 25.09804 16.235063 15.348910 5.658493 
159 "AP9" 62.74510 62.74510 25.09804 18.936297 19.957180 6.814095 
160 "Y1" 62.74510 75.29412 25.09804 22.053423 25.926600 8.289024 
161 "M9" 62.74510 87.84314 25.09804 25.101453 32.800650 9.920453 
162 "K14" 62.74510 100.00000 25.09804 27.921475 40.037620 10.894125 
163 "AA10" 75.29412 0.00000 0.00000 12.050702 7.538491 2.250777 
164 "U4" 75.29412 12.54902 0.00000 13.224110 8.716652 2.119986 
165 "AY2" 75.29412 25.09804 0.00000 13.690487 9.611694 1.960687 
166 "AP12" 75.29412 37.64706 0.00000 15.659076 11.878640 1.933819 
167 "BL5" 75.29412 50.19608 0.00000 17.560924 14.589630 1.966083 
168 "I2" 75.29412 62.74510 0.00000 20.985753 19.577990 2.130766 
169 "AN9" 75.29412 75.29412 0.00000 23.674501 24.744260 2.250318 
170 "AU13" 75.29412 87.84314 0.00000 26.751822 31.032670 2.491761 
171 "H9" 75.29412 100.00000 0.00000 31.637187 39.785520 3.538561 
172 "BK4" 75.29412 0.00000 12.54902 12.461587 7.359696 2.734304 
173 "AF13" 75.29412 12.54902 12.54902 13.801294 8.775517 2.651705 
174 "AI3" 75.29412 25.09804 12.54902 16.456583 11.316120 2.937319 
175 "BF2" 75.29412 37.64706 12.54902 18.187516 13.772700 3.071252 
176 "U17" 75.29412 50.19608 12.54902 21.033328 17.846550 3.489320 
177 "AL15" 75.29412 62.74510 12.54902 23.812806 22.566660 3.713861 
178 "AK1" 75.29412 75.29412 12.54902 27.290423 28.764260 4.338160 
179 "BF9" 75.29412 87.84314 12.54902 30.578491 35.671380 4.849196 
180 "E15" 75.29412 100.00000 12.54902 35.418203 45.238740 6.044464 
181 "R13" 0.00000 0.00000 0.00000 0.468634 0.434979 0.534821 
182 "AZ12" 100.00000 100.00000 100.00000 81.020332 84.198810 72.894768 
183 "AQ18" 75.29412 0.00000 25.09804 13.564445 7.761786 3.766884 
184 "BD11" 75.29412 12.54902 25.09804 15.952570 10.002980 4.343718 
185 "BG8" 75.29412 25.09804 25.09804 17.951613 12.387110 4.668149 
186 "F15" 75.29412 37.64706 25.09804 21.468481 16.660710 5.919959 
187 "AZ4" 75.29412 50.19608 25.09804 23.844553 20.549570 6.398665 
188 "I5" 75.29412 62.74510 25.09804 27.969908 26.967740 7.743747 
189 "AM5" 75.29412 75.29412 25.09804 30.887609 32.875050 8.330158 
190 "AF14" 75.29412 87.84314 25.09804 34.311883 40.189010 9.056679 
191 "K2" 75.29412 100.00000 25.09804 38.138743 48.768070 9.994129 
192 "AI11" 87.84314 0.00000 0.00000 19.112636 10.995590 2.493507 
193 "AL13" 87.84314 12.54902 0.00000 20.272228 11.969670 2.303821 
194 "AW6" 87.84314 25.09804 0.00000 21.737121 13.616470 2.095120 
195 "AR11" 87.84314 37.64706 0.00000 24.140734 16.130110 1.922590 
196 "BC3" 87.84314 50.19608 0.00000 27.618814 19.973960 1.929909 
197 "AT6" 87.84314 62.74510 0.00000 31.733597 25.400890 1.991604 
198 "O9" 87.84314 75.29412 0.00000 36.806850 33.276910 2.266984 
199 "AZ13" 87.84314 87.84314 0.00000 40.847776 40.971270 2.571642 
200 "AM15" 87.84314 100.00000 0.00000 47.576124 52.146870 3.402977 
201 "L14" 87.84314 0.00000 12.54902 20.305949 11.369910 3.315809 
202 "AL2" 87.84314 12.54902 12.54902 22.716208 13.416910 3.299195 
203 "AG13" 87.84314 25.09804 12.54902 25.395688 16.071620 3.507739 
204 "M5" 87.84314 37.64706 12.54902 28.486868 19.711280 3.573791 
205 "BL7" 87.84314 50.19608 12.54902 31.467261 23.915560 3.817657 
206 "Y15" 87.84314 62.74510 12.54902 35.362961 30.123900 4.091193 
207 "BG16" 87.84314 75.29412 12.54902 39.533431 37.144020 4.435474 
208 "AK3" 87.84314 87.84314 12.54902 45.006703 46.702300 4.827229 
209 "AR18" 87.84314 100.00000 12.54902 49.453922 55.954840 5.345373 
210 "AF4" 87.84314 0.00000 25.09804 21.205566 11.648950 4.644187 
211 "R18" 87.84314 12.54902 25.09804 25.263433 15.052200 5.520332 
212 "AD15" 87.84314 25.09804 25.09804 28.145072 18.310880 5.866432 
213 "BL17" 87.84314 37.64706 25.09804 31.339830 22.505920 6.640202 
214 "O18" 87.84314 50.19608 25.09804 35.403227 28.350120 7.544037 
215 "S10" 87.84314 62.74510 25.09804 38.907873 34.341700 8.035591 
216 "O3" 87.84314 75.29412 25.09804 44.217918 42.941290 9.034349 
217 "Z4" 87.84314 87.84314 25.09804 47.960162 50.938880 8.915121 
218 "BF7" 87.84314 100.00000 25.09804 51.265961 58.984520 8.907336 
219 "BC2" 100.00000 0.00000 0.00000 31.002885 16.794670 3.173711 
220 "D16" 100.00000 12.54902 0.00000 31.181586 16.983700 2.818787 
221 "AX8" 100.00000 25.09804 0.00000 31.175249 17.350290 2.314054 
222 "AT1" 100.00000 37.64706 0.00000 35.842238 21.193980 1.874843 
223 "AB3" 100.00000 50.19608 0.00000 41.110541 26.426020 1.864721 
224 "D9" 100.00000 62.74510 0.00000 47.149919 34.039570 2.034520 
225 "Q13" 100.00000 75.29412 0.00000 53.036988 42.305210 2.313534 
226 "AD18" 100.00000 87.84314 0.00000 59.612392 52.425910 2.660856 
227 "AQ2" 100.00000 100.00000 0.00000 66.791383 64.609150 3.079517 
228 "AD17" 100.00000 0.00000 12.54902 31.234145 16.771960 4.247939 
229 "AP14" 100.00000 12.54902 12.54902 33.811128 18.843150 4.016552 
230 "AH16" 100.00000 25.09804 12.54902 37.663701 22.252590 3.987657 
231 "AO8" 100.00000 37.64706 12.54902 40.917208 26.045650 4.069657 
232 "W3" 100.00000 50.19608 12.54902 45.464802 31.712780 4.410313 
233 "AV4" 100.00000 62.74510 12.54902 49.927594 38.519270 4.615452 
234 "AE1" 100.00000 75.29412 12.54902 55.014114 46.669020 4.594302 
235 "BM1" 100.00000 87.84314 12.54902 60.827608 56.663930 4.679842 
236 "BH12" 100.00000 100.00000 12.54902 67.580861 68.919240 4.678925 
237 "I8" 100.00000 0.00000 25.09804 31.417169 16.810920 5.799491 
238 "Q2" 100.00000 12.54902 25.09804 36.636308 20.920060 6.620320 
239 "AQ9" 100.00000 25.09804 25.09804 40.247119 24.934470 7.170048 
240 "F1" 100.00000 37.64706 25.09804 45.124770 30.809550 8.129798 
241 "J8" 100.00000 50.19608 25.09804 48.749262 36.678940 8.601895 
242 "BK11" 100.00000 62.74510 25.09804 52.548139 42.946420 8.795938 
243 "AC5" 100.00000 75.29412 25.09804 57.916118 51.877320 8.788103 
244 "BJ5" 100.00000 87.84314 25.09804 63.113111 61.458700 8.193534 
245 "G2" 100.00000 100.00000 25.09804 69.386759 72.752180 7.773388 
246 "B1" 0.00000 0.00000 37.64706 1.083063 0.968015 2.330654 
247 "A18" 0.00000 12.54902 37.64706 1.178436 1.271299 2.995388 
248 "Y7" 0.00000 25.09804 37.64706 1.375042 1.783601 3.787769 
249 "BA9" 0.00000 37.64706 37.64706 1.710793 2.624663 4.916366 
250 "G13" 0.00000 50.19608 37.64706 2.395406 4.213041 7.223799 
251 "AQ1" 0.00000 62.74510 37.64706 3.178497 6.271544 9.678484 
252 "BI4" 0.00000 75.29412 37.64706 4.118900 8.960397 12.404819 
253 "AS10" 0.00000 87.84314 37.64706 5.018943 11.877710 14.834252 
254 "AM7" 0.00000 100.00000 37.64706 7.047983 16.161790 18.013292 
255 "BI10" 0.00000 0.00000 50.19608 1.335248 1.155211 3.307805 
256 "T4" 0.00000 12.54902 50.19608 1.531526 1.537666 4.524796 
257 "BG3" 0.00000 25.09804 50.19608 1.857519 2.196834 6.005918 
258 "W11" 0.00000 37.64706 50.19608 2.439323 3.393435 8.233939 
259 "BJ17" 0.00000 50.19608 50.19608 3.150021 5.025245 10.774629 
260 "AU3" 0.00000 62.74510 50.19608 4.306899 7.685441 14.734583 
261 "AQ11" 0.00000 75.29412 50.19608 5.356443 10.598780 18.235459 
262 "L17" 0.00000 87.84314 50.19608 6.576184 13.764300 21.858520 
263 "AB13" 0.00000 100.00000 50.19608 8.944172 18.273060 25.438012 
264 "F17" 0.00000 0.00000 62.74510 1.792877 1.366319 5.555066 
265 "J17" 0.00000 12.54902 62.74510 2.081191 1.899846 7.215211 
266 "J1" 0.00000 25.09804 62.74510 2.622526 2.830355 9.523110 
267 "BM11" 0.00000 37.64706 62.74510 3.326769 4.178016 12.408383 
268 "AF15" 0.00000 50.19608 62.74510 4.326101 6.256502 16.238543 
269 "AR8" 0.00000 62.74510 62.74510 5.568783 9.045414 20.511859 
270 "P8" 0.00000 75.29412 62.74510 6.586355 11.816040 24.352039 
271 "BD13" 0.00000 87.84314 62.74510 8.006171 15.104370 28.265267 
272 "AN13" 0.00000 100.00000 62.74510 10.745515 19.956110 32.603936 
273 "BM14" 12.54902 0.00000 37.64706 1.502773 1.190827 2.587116 
274 "Y13" 12.54902 12.54902 37.64706 1.854857 1.809804 3.490089 
275 "AY7" 12.54902 25.09804 37.64706 2.251576 2.495140 4.210903 
276 "AV16" 12.54902 37.64706 37.64706 2.827557 3.536373 5.596197 
277 "AY10" 12.54902 50.19608 37.64706 3.539625 5.114258 7.134674 
278 "BK15" 12.54902 62.74510 37.64706 4.570329 7.533561 9.365070 
279 "BC8" 12.54902 75.29412 37.64706 5.980912 10.968240 12.240341 
280 "J3" 12.54902 87.84314 37.64706 7.959829 15.777090 16.108283 
281 "BA10" 12.54902 100.00000 37.64706 9.892759 20.945530 19.450003 
282 "T17" 12.54902 0.00000 50.19608 1.980124 1.442021 4.331002 
283 "AN14" 12.54902 12.54902 50.19608 2.301827 2.039910 5.250374 
284 "AE6" 12.54902 25.09804 50.19608 2.728078 2.810564 6.236337 
285 "H4" 12.54902 37.64706 50.19608 3.651936 4.390858 8.523885 
286 "AB16" 12.54902 50.19608 50.19608 4.534537 6.288112 10.736533 
287 "AR9" 12.54902 62.74510 50.19608 5.907816 9.077000 14.075998 
288 "AE2" 12.54902 75.29412 50.19608 7.393094 12.538690 17.587590 
289 "BJ11" 12.54902 87.84314 50.19608 9.730250 17.743950 22.440303 
290 "AM17" 12.54902 100.00000 50.19608 12.357169 23.572720 27.787217 
291 "AX6" 12.54902 0.00000 62.74510 2.521586 1.681900 6.762400 
292 "BB7" 12.54902 12.54902 62.74510 2.937635 2.399223 7.909768 
293 "O15" 12.54902 25.09804 62.74510 3.656016 3.512350 9.834209 
294 "G3" 12.54902 37.64706 62.74510 4.754170 5.392035 12.809202 
295 "AW12" 12.54902 50.19608 62.74510 5.802795 7.490510 15.676706 
296 "BL2" 12.54902 62.74510 62.74510 7.193561 10.463920 19.506000 
297 "AQ13" 12.54902 75.29412 62.74510 9.271305 14.568850 24.525324 
298 "P14" 12.54902 87.84314 62.74510 11.697041 19.621600 30.441377 
299 "BL18" 12.54902 100.00000 62.74510 14.693536 25.639170 36.262253 
300 "BH17" 25.09804 0.00000 37.64706 2.229100 1.503741 2.830293 
301 "AK18" 25.09804 12.54902 37.64706 2.850911 2.396346 3.896340 
302 "AU18" 25.09804 25.09804 37.64706 3.326011 3.184518 4.440761 
303 "AS9" 25.09804 37.64706 37.64706 4.243895 4.750960 5.760533 
304 "AJ9" 25.09804 50.19608 37.64706 5.462538 7.041557 7.572436 
305 "BD17" 25.09804 62.74510 37.64706 6.967174 10.039670 9.725118 
306 "AT11" 25.09804 75.29412 37.64706 8.765527 14.130860 12.499109 
307 "AS4" 25.09804 87.84314 37.64706 10.928045 19.455450 16.125575 
308 "U14" 25.09804 100.00000 37.64706 13.213897 25.531910 20.469211 
309 "X13" 25.09804 0.00000 50.19608 2.818645 1.785312 4.792446 
310 "AT13" 25.09804 12.54902 50.19608 3.376395 2.661155 5.855210 
311 "AR13" 25.09804 25.09804 50.19608 3.942330 3.611721 6.549504 
312 "AV15" 25.09804 37.64706 50.19608 5.168995 5.557644 8.651722 
313 "U5" 25.09804 50.19608 50.19608 6.586552 8.154565 11.168409 
314 "BM12" 25.09804 62.74510 50.19608 8.294231 11.491890 14.068751 
315 "AG7" 25.09804 75.29412 50.19608 10.820416 16.244970 18.345821 
316 "BA12" 25.09804 87.84314 50.19608 13.321086 21.975330 22.968140 
317 "I9" 25.09804 100.00000 50.19608 16.451422 28.793240 28.980047 
318 "AA11" 25.09804 0.00000 62.74510 3.566411 2.111717 7.675937 
319 "E5" 25.09804 12.54902 62.74510 4.413416 3.222485 8.980012 
320 "AL4" 25.09804 25.09804 62.74510 4.984088 4.342929 10.151460 
321 "AJ15" 25.09804 37.64706 62.74510 6.480915 6.744521 12.978950 
322 "AI13" 25.09804 50.19608 62.74510 8.268753 9.791763 16.579490 
323 "AD4" 25.09804 62.74510 62.74510 9.997779 13.225700 19.811582 
324 "BA18" 25.09804 75.29412 62.74510 12.587757 18.204020 24.806933 
325 "O12" 25.09804 87.84314 62.74510 15.848928 24.488600 31.186194 
326 "BI14" 25.09804 100.00000 62.74510 18.630604 30.601880 36.916641 
327 "Q5" 37.64706 0.00000 37.64706 3.538206 2.205621 3.190537 
328 "AK14" 37.64706 12.54902 37.64706 4.429108 3.336776 4.220394 
329 "BH7" 37.64706 25.09804 37.64706 5.199817 4.427292 4.712804 
330 "AW2" 37.64706 37.64706 37.64706 6.530277 6.577566 6.163767 
331 "O2" 37.64706 50.19608 37.64706 8.203014 9.387250 7.938636 
332 "O11" 37.64706 62.74510 37.64706 10.420319 13.351680 10.253931 
333 "D6" 37.64706 75.29412 37.64706 13.178934 18.726790 13.162101 
334 "AP6" 37.64706 87.84314 37.64706 15.306327 24.286210 15.726445 
335 "BK10" 37.64706 100.00000 37.64706 17.435107 30.239740 19.748283 
336 "AL3" 37.64706 0.00000 50.19608 4.400403 2.571399 5.406270 
337 "AC2" 37.64706 12.54902 50.19608 5.097194 3.621729 6.244837 
338 "O16" 37.64706 25.09804 50.19608 6.187101 5.137139 7.217799 
339 "AG10" 37.64706 37.64706 50.19608 7.794329 7.552347 9.443650 
340 "L15" 37.64706 50.19608 50.19608 9.946966 11.107610 12.190683 
341 "R1" 37.64706 62.74510 50.19608 12.522352 15.534780 15.236750 
342 "AV8" 37.64706 75.29412 50.19608 14.934719 20.475850 18.480700 
343 "BL3" 37.64706 87.84314 50.19608 18.110018 27.124610 23.076713 
344 "U7" 37.64706 100.00000 50.19608 20.941365 33.804520 28.238168 
345 "Q1" 37.64706 0.00000 62.74510 5.618119 3.046930 8.828023 
346 "AP10" 37.64706 12.54902 62.74510 6.175887 4.189645 9.257633 
347 "J4" 37.64706 25.09804 62.74510 7.616880 6.144346 10.986987 
348 "AT2" 37.64706 37.64706 62.74510 9.353860 8.864976 13.862469 
349 "AH8" 37.64706 50.19608 62.74510 11.794948 12.783000 17.422526 
350 "AL17" 37.64706 62.74510 62.74510 14.306428 17.195410 20.877602 
351 "AY17" 37.64706 75.29412 62.74510 17.400710 22.906950 25.698717 
352 "P4" 37.64706 87.84314 62.74510 21.224319 30.051140 31.780477 
353 "Q14" 37.64706 100.00000 62.74510 24.638907 37.114700 37.208289 
354 "AM18" 50.19608 0.00000 37.64706 6.130569 3.593786 3.911018 
355 "D14" 50.19608 12.54902 37.64706 7.360055 5.083905 4.877839 
356 "AD5" 50.19608 25.09804 37.64706 8.104328 6.341627 5.340454 
357 "AR12" 50.19608 37.64706 37.64706 10.240335 9.255565 6.932910 
358 "BK9" 50.19608 50.19608 37.64706 12.174580 12.488720 8.411074 
359 "W7" 50.19608 62.74510 37.64706 15.072468 17.370150 10.729549 
360 "AE13" 50.19608 75.29412 37.64706 17.772354 22.795640 12.785128 
